( pcb2gcode 1.3.2 )
( Software-independent Gcode )

G94 ( Millimeters per minute feed rate. )
G21 ( Units == Millimeters. )

G90 ( Absolute coordinates. )
S10000 ( RPM spindle speed. )
F250.00000 ( Feedrate. )

F250.00000 ( Feedrate. )
M3 ( Spindle on clockwise. )
G04 P0 ( dwell for no time -- G64 should not smooth over this point )
G00 Z5.00000 ( retract )

G00 X6.28894 Y16.36642 ( rapid move to begin. )
F125.00000
G01 Z-0.15000
G04 P0 ( dwell for no time -- G64 should not smooth over this point )
F250.00000
G01 X6.28894 Y16.36642
X6.72130 Y16.15039
X6.89732 Y16.09418
X7.05081 Y16.07874
X7.90506 Y16.08466
X8.14233 Y16.15042
X8.63458 Y16.40241
X8.75937 Y16.50350
X9.01327 Y16.76652
X9.09970 Y16.90185
X9.29020 Y17.28280
X9.35919 Y17.48709
X9.37463 Y17.64064
X9.36871 Y18.49486
X9.30298 Y18.73207
X9.05093 Y19.22435
X8.94989 Y19.34909
X8.68685 Y19.60304
X8.55144 Y19.68950
X8.17049 Y19.87998
X8.02637 Y19.93476
X7.90524 Y19.95846
X7.05081 Y19.96446
X6.89729 Y19.94896
X6.72125 Y19.89273
X6.28896 Y19.67673
X5.88480 Y19.87998
X5.74068 Y19.93476
X5.55795 Y19.96324
X5.30560 Y19.96324
X5.06415 Y19.91599
X4.56971 Y19.67401
X4.41345 Y19.56138
X4.13593 Y19.27647
X4.04957 Y19.14122
X3.85910 Y18.76027
X3.79011 Y18.55605
X3.77462 Y18.40253
X3.77462 Y17.64064
X3.79011 Y17.48707
X3.84635 Y17.31102
X4.04957 Y16.90190
X4.13601 Y16.76652
X4.38991 Y16.50350
X4.51465 Y16.40246
X4.97878 Y16.16317
X5.18302 Y16.09418
X5.52701 Y16.07874
X5.74068 Y16.10838
X5.88480 Y16.16317
X6.28894 Y16.36642
G04 P0 ( dwell for no time -- G64 should not smooth over this point )
G00 Z5.00000 ( retract )

G00 X5.37461 Y17.82951 ( rapid move to begin. )
F125.00000
G01 Z-0.15000
G04 P0 ( dwell for no time -- G64 should not smooth over this point )
F250.00000
G01 X5.37461 Y17.82951
X5.37461 Y18.21361
X5.43199 Y18.31755
X5.48891 Y18.21369
X5.48891 Y17.82941
X5.43410 Y17.72667
X5.37461 Y17.82951
G04 P0 ( dwell for no time -- G64 should not smooth over this point )
G00 Z5.00000 ( retract )

G00 X7.77464 Y17.82946 ( rapid move to begin. )
F125.00000
G01 Z-0.15000
G04 P0 ( dwell for no time -- G64 should not smooth over this point )
F250.00000
G01 X7.77464 Y17.82946
X7.72668 Y17.73355
X7.62394 Y17.67874
X7.23963 Y17.67874
X7.14378 Y17.72667
X7.08891 Y17.82951
X7.08891 Y18.21361
X7.13689 Y18.30957
X7.23974 Y18.36446
X7.62384 Y18.36446
X7.71977 Y18.31650
X7.77464 Y18.21366
X7.77464 Y17.82946
G04 P0 ( dwell for no time -- G64 should not smooth over this point )
G00 Z5.00000 ( retract )

G00 X9.35010 Y21.06773 ( rapid move to begin. )
F125.00000
G01 Z-0.15000
G04 P0 ( dwell for no time -- G64 should not smooth over this point )
F250.00000
G01 X9.35010 Y21.06773
X9.37463 Y21.25968
X9.37463 Y22.02160
X9.34499 Y22.23522
X9.29020 Y22.37939
X9.05083 Y22.84355
X8.94984 Y22.96821
X8.75937 Y23.15868
X8.55144 Y23.30854
X8.14233 Y23.51177
X7.96628 Y23.56801
X7.81271 Y23.58350
X6.63895 Y23.58228
X6.45625 Y23.55381
X6.31213 Y23.49902
X5.90299 Y23.29300
X5.72325 Y23.15868
X5.53278 Y22.96821
X5.43174 Y22.84347
X5.17969 Y22.35117
X5.11396 Y22.11408
X5.10797 Y21.67873
X4.44955 Y21.66775
X4.24929 Y21.60956
X4.13954 Y21.54873
X4.00975 Y21.44363
X3.88181 Y21.27873
X3.80294 Y21.08543
X3.77683 Y20.83690
X3.82880 Y20.59237
X3.90459 Y20.44365
X3.98013 Y20.34340
X4.07190 Y20.25783
X4.21195 Y20.16687
X4.44967 Y20.08965
X4.57462 Y20.07873
X8.57463 Y20.07873
X8.69963 Y20.08965
X8.90003 Y20.14787
X9.07740 Y20.25783
X9.19556 Y20.37599
X9.28649 Y20.51599
X9.34636 Y20.67197
X9.37245 Y20.83690
X9.35010 Y21.06773
G04 P0 ( dwell for no time -- G64 should not smooth over this point )
G00 Z5.00000 ( retract )

G00 X6.70796 Y21.67873 ( rapid move to begin. )
F125.00000
G01 Z-0.15000
G04 P0 ( dwell for no time -- G64 should not smooth over this point )
F250.00000
G01 X6.70796 Y21.67873
X6.70796 Y21.83268
X6.75594 Y21.92864
X6.85879 Y21.98350
X7.62384 Y21.98350
X7.71980 Y21.93552
X7.77464 Y21.83278
X7.77464 Y21.67873
X6.70796 Y21.67873
G04 P0 ( dwell for no time -- G64 should not smooth over this point )
G00 Z5.00000 ( retract )

G00 X5.43938 Y25.14529 ( rapid move to begin. )
F125.00000
G01 Z-0.15000
G04 P0 ( dwell for no time -- G64 should not smooth over this point )
F250.00000
G01 X5.43938 Y25.14529
X5.30169 Y25.28027
X5.17596 Y25.37354
X5.03431 Y25.44057
X4.88229 Y25.47862
X4.72600 Y25.48629
X4.57096 Y25.46333
X4.42354 Y25.41057
X4.28904 Y25.32998
X3.93286 Y24.97372
X3.85234 Y24.83943
X3.79872 Y24.69208
X3.77657 Y24.53702
X3.79806 Y24.30862
X3.84480 Y24.17283
X3.92829 Y24.02820
X4.00896 Y23.93206
X4.28915 Y23.66546
X4.42349 Y23.58495
X4.57103 Y23.53217
X4.72600 Y23.50920
X4.95927 Y23.53217
X5.10680 Y23.58497
X5.24109 Y23.66549
X5.44027 Y23.85144
X5.43938 Y25.14529
G04 P0 ( dwell for no time -- G64 should not smooth over this point )
G00 Z5.00000 ( retract )

G00 X5.46791 Y25.16467 ( rapid move to begin. )
F125.00000
G01 Z-0.15000
G04 P0 ( dwell for no time -- G64 should not smooth over this point )
F250.00000
G01 X5.46791 Y25.16467
X6.00606 Y25.16848
X6.23275 Y25.20448
X6.38226 Y25.24936
X6.50131 Y25.29775
X6.52887 Y25.32835
X6.61982 Y25.46841
X6.67255 Y25.60255
X8.09554 Y25.60846
X8.33280 Y25.67422
X8.82510 Y25.92627
X8.97161 Y26.05091
X9.08416 Y26.20701
X9.30295 Y26.64433
X9.35919 Y26.82042
X9.37463 Y26.97397
X9.36371 Y27.47986
X9.30552 Y27.68024
X9.24469 Y27.78999
X9.10996 Y27.94940
X9.00971 Y28.02494
X8.86099 Y28.10074
X8.61647 Y28.15271
X8.36793 Y28.12659
X8.13951 Y28.02489
X8.00974 Y27.91979
X7.90463 Y27.78999
X7.84380 Y27.68024
X7.80298 Y27.56162
X7.77684 Y27.39683
X7.77464 Y27.20254
X6.70796 Y27.20254
X6.69704 Y27.47986
X6.63885 Y27.68024
X6.52887 Y27.85763
X6.44329 Y27.94940
X6.34304 Y28.02494
X6.15521 Y28.11575
X6.03293 Y28.14397
X5.86616 Y28.15271
X5.66082 Y28.11575
X5.47284 Y28.02489
X5.28711 Y27.85763
X5.17713 Y27.68024
X5.11894 Y27.47999
X5.10797 Y27.20254
X4.53271 Y27.20033
X4.36791 Y27.17420
X4.21195 Y27.11435
X4.00975 Y26.96744
X3.88181 Y26.80254
X3.81378 Y26.64969
X3.77683 Y26.44435
X3.78557 Y26.27758
X3.82880 Y26.11618
X3.95374 Y25.89980
X4.07190 Y25.78164
X4.24929 Y25.67166
X4.44967 Y25.61347
X5.14340 Y25.60255
X5.19615 Y25.46841
X5.28711 Y25.32835
X5.46791 Y25.16467
G04 P0 ( dwell for no time -- G64 should not smooth over this point )
G00 Z5.00000 ( retract )

G00 X6.50136 Y25.29777 ( rapid move to begin. )
F125.00000
G01 Z-0.15000
G04 P0 ( dwell for no time -- G64 should not smooth over this point )
F250.00000
G01 X6.50136 Y25.29777
X6.29864 Y25.22218
X6.08968 Y25.17727
X5.46859 Y25.16462
X5.43928 Y25.14336
X5.43207 Y24.03166
X5.44025 Y23.85144
X5.47289 Y23.82772
X5.58264 Y23.76689
X5.70126 Y23.72607
X5.90796 Y23.69777
X8.57463 Y23.69777
X8.69963 Y23.70870
X8.90003 Y23.76691
X9.07740 Y23.87687
X9.16920 Y23.96244
X9.24471 Y24.06270
X9.33552 Y24.25053
X9.36374 Y24.37280
X9.37245 Y24.53958
X9.34636 Y24.70448
X9.28649 Y24.86043
X9.13955 Y25.06267
X9.00976 Y25.16777
X8.86092 Y25.24359
X8.69973 Y25.28680
X8.57463 Y25.29777
X6.50136 Y25.29777
G04 P0 ( dwell for no time -- G64 should not smooth over this point )
G00 Z5.00000 ( retract )

G00 X20.65632 Y8.88589 ( rapid move to begin. )
F125.00000
G01 Z-0.15000
G04 P0 ( dwell for no time -- G64 should not smooth over this point )
F250.00000
G01 X20.65632 Y8.88589
X20.64512 Y8.79633
X20.64512 Y5.49636
X20.67557 Y5.34328
X20.76229 Y5.21351
X20.89206 Y5.12679
X21.04512 Y5.09636
X24.34509 Y5.09636
X24.49817 Y5.12679
X24.62794 Y5.21351
X24.71466 Y5.34328
X24.74509 Y5.49636
X24.74509 Y8.79633
X24.71466 Y8.94939
X24.62794 Y9.07916
X24.49817 Y9.16587
X24.34509 Y9.19633
X21.04512 Y9.19633
X20.89206 Y9.16587
X20.82289 Y9.12889
X20.71256 Y9.01855
X20.65632 Y8.88589
G04 P0 ( dwell for no time -- G64 should not smooth over this point )
G00 Z5.00000 ( retract )

G00 X30.54510 Y21.38635 ( rapid move to begin. )
F125.00000
G01 Z-0.15000
G04 P0 ( dwell for no time -- G64 should not smooth over this point )
F250.00000
G01 X30.54510 Y21.38635
X30.81569 Y21.38825
X30.97073 Y21.41121
X31.11825 Y21.46402
X31.31315 Y21.59427
X34.73259 Y25.01103
X34.98499 Y25.02182
X35.18751 Y25.07382
X35.48466 Y25.22523
X35.64583 Y25.35853
X36.63577 Y26.34847
X36.76907 Y26.50963
X36.90752 Y26.76693
X36.97247 Y27.00930
X36.98557 Y27.21799
X36.95504 Y27.46663
X36.85647 Y27.74176
X36.74440 Y27.91834
X36.57354 Y28.10155
X36.46510 Y28.18240
X36.46510 Y28.29495
X38.52080 Y30.35064
X38.64044 Y30.50548
X38.73022 Y30.72217
X38.75509 Y30.91635
X38.75509 Y32.00977
X38.78631 Y32.22458
X38.78631 Y35.10342
X39.86065 Y36.17781
X39.96403 Y36.14136
X40.27076 Y36.07616
X40.75064 Y36.07616
X41.05737 Y36.14136
X41.42336 Y36.29473
X41.81165 Y36.57682
X42.07063 Y36.87753
X42.26143 Y37.22548
X42.35834 Y37.52370
X42.40850 Y38.00100
X42.37571 Y38.31286
X42.28950 Y38.60656
X44.55521 Y40.87231
X52.43444 Y40.87422
X52.66451 Y40.91994
X52.87129 Y41.03051
X53.42672 Y41.57231
X53.80043 Y41.57231
X53.95549 Y41.42108
X54.15915 Y41.28928
X54.30792 Y41.22545
X54.54366 Y41.16866
X56.10398 Y41.15636
X56.30662 Y41.17478
X56.61472 Y41.27147
X56.82264 Y41.39624
X56.94548 Y41.50168
X57.14312 Y41.75702
X57.24253 Y41.97828
X57.28310 Y42.13497
X57.30354 Y42.37658
X57.27494 Y42.61742
X57.16280 Y42.92024
X57.02762 Y43.12161
X56.85472 Y43.29161
X56.65107 Y43.42341
X56.50230 Y43.48724
X56.26656 Y43.54404
X54.66464 Y43.55430
X54.42430 Y43.52161
X54.19550 Y43.44122
X53.98757 Y43.31645
X53.82611 Y43.17231
X53.05605 Y43.17035
X52.90116 Y43.14739
X52.75364 Y43.09459
X52.55875 Y42.96433
X52.06398 Y42.47231
X44.22379 Y42.47231
X44.10652 Y42.46266
X43.95462 Y42.42463
X43.81297 Y42.35760
X43.65813 Y42.23797
X41.16075 Y39.74054
X41.05737 Y39.77699
X40.70929 Y39.84874
X40.27076 Y39.84219
X39.96403 Y39.77699
X39.59804 Y39.62362
X39.23937 Y39.37112
X38.95077 Y39.04082
X38.75997 Y38.69287
X38.66307 Y38.39465
X38.61290 Y37.91735
X38.64569 Y37.60549
X38.73190 Y37.31179
X37.65499 Y36.23483
X36.33800 Y36.23483
X35.82228 Y36.75050
X35.82909 Y36.84928
X35.80668 Y37.10923
X35.74778 Y37.32073
X35.60450 Y37.58743
X35.46467 Y37.75662
X34.54542 Y38.67587
X34.30615 Y38.86122
X34.10956 Y38.95896
X33.89803 Y39.01789
X33.59617 Y39.04029
X33.29823 Y38.98647
X33.05787 Y38.88484
X32.87494 Y38.76345
X32.66554 Y38.54481
X32.54781 Y38.35949
X32.46709 Y38.15535
X32.41327 Y37.81560
X32.42694 Y37.59645
X32.48165 Y37.38388
X32.61322 Y37.11121
X32.74967 Y36.93925
X33.69694 Y35.98888
X33.90003 Y35.82442
X34.17268 Y35.69285
X34.38530 Y35.63814
X34.68185 Y35.62820
X35.47006 Y34.84276
X35.59589 Y34.74944
X35.73747 Y34.68246
X35.88949 Y34.64441
X36.00663 Y34.63484
X37.18631 Y34.63484
X37.18631 Y32.40797
X37.15509 Y32.19336
X37.15509 Y31.24767
X35.02335 Y29.10231
X34.91278 Y28.89553
X34.87476 Y28.74364
X34.86511 Y27.97196
X33.94875 Y27.05560
X33.81545 Y26.89444
X33.66404 Y26.59729
X33.61205 Y26.39477
X33.60123 Y26.14240
X30.44523 Y22.98635
X27.79509 Y22.98635
X27.60096 Y22.96143
X27.38427 Y22.87164
X27.22943 Y22.75200
X23.89335 Y19.40230
X23.78278 Y19.19552
X23.74476 Y19.04363
X23.73511 Y18.92636
X23.74509 Y15.72169
X23.63866 Y15.60922
X23.51128 Y15.41189
X23.42624 Y15.19296
X23.39520 Y15.04196
X23.38311 Y13.40935
X23.41707 Y13.13526
X23.49513 Y12.91375
X23.56996 Y12.77892
X23.71659 Y12.59554
X23.89721 Y12.44537
X24.18016 Y12.30656
X24.40950 Y12.25566
X24.64425 Y12.25195
X24.79665 Y12.27529
X25.01958 Y12.34913
X25.22309 Y12.46633
X25.39886 Y12.62210
X25.57892 Y12.88080
X25.66396 Y13.09973
X25.70317 Y13.33026
X25.70709 Y14.88334
X25.68941 Y15.07823
X25.59507 Y15.37894
X25.47402 Y15.58019
X25.34509 Y15.72413
X25.33510 Y18.59494
X28.12651 Y21.38635
X30.54510 Y21.38635
G04 P0 ( dwell for no time -- G64 should not smooth over this point )
G00 Z5.00000 ( retract )

G00 X30.77654 Y21.38635 ( rapid move to begin. )
F125.00000
G01 Z-0.15000
G04 P0 ( dwell for no time -- G64 should not smooth over this point )
F250.00000
G01 X30.77654 Y21.38635
X30.50586 Y21.38439
X30.35097 Y21.36143
X30.20344 Y21.30862
X30.00855 Y21.17837
X26.47945 Y17.65201
X26.40335 Y17.56230
X26.32283 Y17.42801
X26.27003 Y17.28049
X26.24511 Y17.08636
X26.24511 Y15.72169
X26.13868 Y15.60922
X26.01130 Y15.41189
X25.92626 Y15.19296
X25.89522 Y15.04196
X25.88519 Y13.36782
X25.90081 Y13.21446
X25.96324 Y12.98814
X26.11620 Y12.71250
X26.27528 Y12.53976
X26.39723 Y12.44537
X26.60432 Y12.33468
X26.82946 Y12.26790
X27.06347 Y12.24786
X27.29667 Y12.27529
X27.51960 Y12.34913
X27.72311 Y12.46633
X27.89888 Y12.62210
X28.07894 Y12.88080
X28.16398 Y13.09973
X28.20319 Y13.33026
X28.20505 Y14.92487
X28.17315 Y15.15743
X28.09509 Y15.37894
X27.97404 Y15.58019
X27.84511 Y15.72413
X27.84511 Y16.75494
X30.87652 Y19.78635
X32.80776 Y19.78826
X33.03783 Y19.83398
X33.17949 Y19.90101
X33.30522 Y19.99428
X36.52670 Y23.21307
X36.78105 Y23.22577
X36.98357 Y23.27776
X37.28072 Y23.42917
X37.44189 Y23.56247
X38.45989 Y24.58357
X38.56512 Y24.71357
X38.68654 Y24.93259
X38.76853 Y25.21324
X38.78163 Y25.42193
X38.75110 Y25.67057
X38.63157 Y25.98200
X38.48783 Y26.18725
X38.30462 Y26.35812
X38.12807 Y26.47016
X37.85291 Y26.56876
X37.60427 Y26.59929
X37.39558 Y26.58619
X37.15321 Y26.52124
X36.96594 Y26.42825
X36.73475 Y26.24948
X35.74481 Y25.25954
X35.61151 Y25.09838
X35.46010 Y24.80123
X35.40811 Y24.59871
X35.39729 Y24.34636
X32.43732 Y21.38635
X30.77654 Y21.38635
G04 P0 ( dwell for no time -- G64 should not smooth over this point )
G00 Z5.00000 ( retract )

G00 X38.55296 Y18.46852 ( rapid move to begin. )
F125.00000
G01 Z-0.15000
G04 P0 ( dwell for no time -- G64 should not smooth over this point )
F250.00000
G01 X38.55296 Y18.46852
X38.55296 Y21.42717
X38.85773 Y21.51170
X39.07676 Y21.63311
X39.23792 Y21.76641
X40.22788 Y22.75637
X40.36118 Y22.91754
X40.49964 Y23.17484
X40.56459 Y23.41721
X40.57769 Y23.62589
X40.54716 Y23.87453
X40.44859 Y24.14967
X40.33652 Y24.32625
X40.16565 Y24.50946
X39.96040 Y24.65319
X39.64897 Y24.77273
X39.40033 Y24.80326
X39.19164 Y24.79015
X38.94927 Y24.72520
X38.69197 Y24.58675
X38.53081 Y24.45345
X37.54084 Y23.46348
X37.40755 Y23.30232
X37.26909 Y23.04502
X37.20414 Y22.80265
X37.19332 Y22.55028
X37.11120 Y22.45452
X37.03069 Y22.32023
X36.97788 Y22.17271
X36.95492 Y22.01782
X36.95296 Y18.13715
X36.96259 Y18.01983
X37.00064 Y17.86794
X37.06767 Y17.72628
X37.18730 Y17.57145
X38.82784 Y15.94453
X39.03462 Y15.83398
X39.18664 Y15.79594
X39.70388 Y15.78636
X39.88798 Y15.46957
X40.15377 Y15.17437
X40.47513 Y14.94090
X40.79893 Y14.79436
X41.26832 Y14.69459
X41.62369 Y14.69678
X41.97177 Y14.76853
X42.41020 Y14.96370
X42.69643 Y15.17440
X42.96222 Y15.46957
X43.14182 Y15.77628
X43.27274 Y16.15087
X43.32508 Y16.58633
X43.29011 Y16.94003
X43.17583 Y17.32004
X42.96225 Y17.70309
X42.69646 Y17.99829
X42.41020 Y18.20899
X42.05127 Y18.37833
X41.62369 Y18.47591
X41.26832 Y18.47812
X40.87843 Y18.40416
X40.47513 Y18.23180
X40.15377 Y17.99829
X39.88798 Y17.70309
X39.70327 Y17.38636
X39.63515 Y17.38636
X38.55296 Y18.46852
G04 P0 ( dwell for no time -- G64 should not smooth over this point )
G00 Z5.00000 ( retract )

G00 X46.95358 Y9.88635 ( rapid move to begin. )
F125.00000
G01 Z-0.15000
G04 P0 ( dwell for no time -- G64 should not smooth over this point )
F250.00000
G01 X46.95358 Y9.88635
X47.14951 Y9.55663
X47.40819 Y9.27263
X47.71868 Y9.04652
X48.06838 Y8.88757
X48.51867 Y8.79407
X49.17036 Y8.78637
X49.51750 Y8.81909
X49.88636 Y8.92625
X50.22611 Y9.10545
X50.52284 Y9.34942
X50.76436 Y9.64807
X50.94082 Y9.98922
X51.04501 Y10.35894
X51.07264 Y10.74202
X51.00229 Y11.20123
X50.89688 Y11.48583
X50.70071 Y11.81603
X50.38065 Y12.15276
X50.13155 Y12.32614
X49.78184 Y12.48510
X49.33155 Y12.57859
X48.67984 Y12.58629
X48.33272 Y12.55357
X47.88949 Y12.41451
X47.62411 Y12.26721
X47.32739 Y12.02325
X47.08586 Y11.72459
X46.95990 Y11.48634
X38.39665 Y11.48634
X38.20071 Y11.81603
X37.94204 Y12.10003
X37.63155 Y12.32614
X37.28184 Y12.48510
X36.83155 Y12.57859
X36.13465 Y12.58428
X35.83272 Y12.55357
X35.71700 Y12.52586
X34.60509 Y13.63772
X34.60509 Y14.87173
X34.75507 Y14.94090
X35.07643 Y15.17440
X35.34222 Y15.46957
X35.55583 Y15.85265
X35.67011 Y16.23266
X35.70290 Y16.62817
X35.65274 Y17.02182
X35.55583 Y17.32004
X35.34225 Y17.70309
X35.07646 Y17.99829
X34.75510 Y18.23180
X34.35177 Y18.40416
X34.00369 Y18.47591
X33.56516 Y18.46936
X33.17893 Y18.37833
X32.82000 Y18.20899
X32.53377 Y17.99829
X32.29432 Y17.73566
X32.08838 Y17.39641
X31.95747 Y17.02182
X31.90730 Y16.62817
X31.95747 Y16.15087
X32.08838 Y15.77628
X32.29432 Y15.43703
X32.56631 Y15.14803
X32.85513 Y14.94090
X33.00509 Y14.87176
X33.00509 Y13.30635
X33.01472 Y13.18903
X33.05277 Y13.03714
X33.11980 Y12.89548
X33.23943 Y12.74065
X34.47105 Y11.50908
X34.38129 Y11.30755
X34.29297 Y10.93374
X34.28167 Y10.54977
X34.34794 Y10.17144
X34.48898 Y9.81418
X34.69907 Y9.49262
X34.96958 Y9.21990
X35.28946 Y9.00725
X35.64555 Y8.86334
X36.01867 Y8.79407
X36.67036 Y8.78637
X37.09678 Y8.83540
X37.46073 Y8.95815
X37.79256 Y9.15170
X38.07859 Y9.40806
X38.26436 Y9.64807
X38.39035 Y9.88635
X46.95358 Y9.88635
G04 P0 ( dwell for no time -- G64 should not smooth over this point )
G00 Z5.00000 ( retract )

G00 X48.09510 Y3.67881 ( rapid move to begin. )
F125.00000
G01 Z-0.15000
G04 P0 ( dwell for no time -- G64 should not smooth over this point )
F250.00000
G01 X48.09510 Y3.67881
X37.24509 Y3.67881
X37.24509 Y3.88191
X37.46073 Y3.95816
X37.79256 Y4.15171
X38.07859 Y4.40807
X38.30716 Y4.71676
X38.46893 Y5.06512
X38.54501 Y5.35895
X38.56855 Y5.82290
X38.50229 Y6.20124
X38.36124 Y6.55849
X38.20071 Y6.81604
X37.94204 Y7.10004
X37.56076 Y7.36542
X37.20468 Y7.50934
X36.83155 Y7.57860
X36.17984 Y7.58630
X35.83272 Y7.55358
X35.38949 Y7.41452
X35.05766 Y7.22097
X34.77163 Y6.96461
X34.54306 Y6.65592
X34.38129 Y6.30756
X34.29297 Y5.93375
X34.28167 Y5.54978
X34.32764 Y5.24978
X34.45335 Y4.88684
X34.64951 Y4.55664
X34.90819 Y4.27264
X35.21867 Y4.04653
X35.64293 Y3.86421
X35.64509 Y3.69588
X27.28509 Y3.93454
X27.28509 Y9.67728
X29.92006 Y12.31225
X30.09224 Y12.38477
X30.22310 Y12.46633
X30.39887 Y12.62210
X30.57893 Y12.88080
X30.66397 Y13.09973
X30.69501 Y13.25073
X30.70710 Y14.88334
X30.68942 Y15.07823
X30.62699 Y15.30455
X30.47403 Y15.58019
X30.31495 Y15.75293
X30.19301 Y15.84732
X29.91005 Y15.98613
X29.76077 Y16.02479
X29.52676 Y16.04483
X29.21521 Y15.99710
X29.07063 Y15.94356
X28.86713 Y15.82636
X28.63868 Y15.60922
X28.51130 Y15.41189
X28.45049 Y15.27018
X28.38704 Y14.96243
X28.38313 Y13.40935
X28.40081 Y13.21446
X28.43218 Y13.08718
X25.91943 Y10.57438
X25.79980 Y10.41954
X25.73277 Y10.27789
X25.69474 Y10.12599
X25.68509 Y10.00872
X25.68509 Y3.98026
X21.41451 Y4.10218
X20.64509 Y4.86771
X20.64509 Y24.67986
X27.90406 Y24.67986
X28.09824 Y24.70473
X28.31493 Y24.79452
X28.46977 Y24.91415
X30.54048 Y26.98489
X31.09610 Y26.44016
X31.16524 Y26.40320
X31.31833 Y26.37277
X31.47139 Y26.40320
X31.54055 Y26.44019
X32.73252 Y27.62129
X32.81924 Y27.75105
X32.84200 Y27.82609
X32.84200 Y27.98214
X32.81924 Y28.05720
X32.73252 Y28.18697
X30.61119 Y30.30828
X30.48142 Y30.39499
X30.40639 Y30.41775
X30.25031 Y30.41775
X30.10611 Y30.35803
X30.04551 Y30.30828
X28.91414 Y29.17691
X28.82743 Y29.04714
X28.80467 Y28.97211
X28.80467 Y28.81603
X28.86441 Y28.67183
X29.40911 Y28.11626
X27.57277 Y26.27986
X20.41296 Y26.27986
X17.17810 Y29.51468
X17.22262 Y29.60927
X17.36921 Y30.08872
X17.41510 Y30.54632
X17.36921 Y31.00396
X17.18861 Y31.55981
X16.93040 Y31.98955
X16.58849 Y32.35623
X16.17782 Y32.64378
X15.75674 Y32.82887
X15.30731 Y32.92661
X14.80607 Y32.93537
X14.27353 Y32.82887
X13.85245 Y32.64378
X13.40922 Y32.32989
X13.09985 Y31.98955
X12.80762 Y31.48341
X12.66104 Y31.00396
X12.61514 Y30.54632
X12.66104 Y30.08872
X12.80762 Y29.60927
X13.09985 Y29.10312
X13.40922 Y28.76279
X13.78001 Y28.49070
X14.31397 Y28.25298
X14.80607 Y28.15733
X15.22415 Y28.15733
X15.75674 Y28.26380
X16.04173 Y28.38832
X19.04510 Y25.38499
X19.04703 Y4.49708
X19.09277 Y4.26713
X19.16483 Y4.11719
X19.14197 Y3.89088
X19.16275 Y3.74948
X19.24665 Y3.58168
X21.08131 Y1.90120
X21.18705 Y1.84361
X21.37727 Y1.80790
X52.70563 Y1.77445
X52.90906 Y1.57374
X53.03490 Y1.48044
X53.25151 Y1.39071
X53.44564 Y1.36581
X57.22376 Y1.36581
X57.44299 Y1.33300
X59.27314 Y1.33300
X59.49241 Y1.36581
X62.33076 Y1.37542
X62.55527 Y1.44351
X62.75017 Y1.57374
X63.94846 Y2.76932
X64.50406 Y2.22459
X64.57320 Y2.18763
X64.72629 Y2.15720
X64.87935 Y2.18763
X64.94851 Y2.22461
X67.48399 Y4.74922
X67.57071 Y4.87899
X67.59346 Y4.95402
X67.59346 Y5.11008
X67.57071 Y5.18514
X67.48399 Y5.31490
X66.98905 Y5.80985
X68.18460 Y7.00817
X68.27787 Y7.13390
X68.34490 Y7.27556
X68.39062 Y7.50563
X68.39252 Y10.26580
X68.42534 Y10.48518
X68.42534 Y13.78611
X68.40047 Y13.98024
X68.31073 Y14.19685
X68.19105 Y14.35177
X66.06535 Y16.47742
X66.10810 Y16.59677
X66.17736 Y16.96990
X66.18506 Y17.62161
X66.15234 Y17.96873
X66.04518 Y18.33759
X65.86598 Y18.67734
X65.62202 Y18.97406
X65.32336 Y19.21559
X65.08509 Y19.34157
X65.08509 Y27.90480
X65.41480 Y28.10074
X65.69880 Y28.35941
X65.92491 Y28.66990
X66.08387 Y29.01961
X66.17736 Y29.46990
X66.18506 Y30.12161
X66.15234 Y30.46873
X66.06492 Y30.77470
X67.75554 Y32.46537
X67.87518 Y32.62021
X67.94221 Y32.76187
X67.98026 Y32.91388
X67.98983 Y33.03108
X67.98026 Y36.75406
X67.91218 Y36.97852
X67.83167 Y37.11286
X67.75554 Y37.20257
X64.66769 Y40.27679
X64.46091 Y40.38735
X64.30902 Y40.42540
X64.19169 Y40.43503
X61.51095 Y40.43503
X61.31682 Y40.41011
X61.10013 Y40.32032
X60.94529 Y40.20069
X58.91690 Y38.17229
X56.96529 Y38.17229
X56.86798 Y38.26277
X56.67065 Y38.39015
X56.45173 Y38.47519
X56.30073 Y38.50623
X54.66812 Y38.51832
X54.47322 Y38.50064
X54.24691 Y38.43821
X54.03769 Y38.33148
X53.79852 Y38.12617
X53.70413 Y38.00422
X53.59344 Y37.79714
X53.51442 Y37.49193
X53.51071 Y37.25718
X53.55435 Y37.02642
X53.64353 Y36.80920
X53.77464 Y36.61431
X53.94223 Y36.44989
X54.13957 Y36.32251
X54.35849 Y36.23747
X54.50949 Y36.20644
X56.14208 Y36.19435
X56.33700 Y36.21202
X56.63771 Y36.30636
X56.83895 Y36.42742
X56.99818 Y36.57230
X59.36541 Y36.58187
X59.58992 Y36.64997
X59.72421 Y36.73049
X59.81393 Y36.80659
X61.84237 Y38.83503
X63.86032 Y38.83503
X66.38983 Y36.30555
X66.38983 Y33.36242
X64.93645 Y31.90898
X64.53251 Y32.00848
X64.14854 Y32.01978
X63.84854 Y31.97380
X63.48560 Y31.84810
X63.15540 Y31.65194
X62.87140 Y31.39326
X62.64529 Y31.08277
X62.48634 Y30.73307
X62.40099 Y30.35862
X62.38514 Y29.63106
X62.41786 Y29.28394
X62.55692 Y28.84071
X62.70422 Y28.57534
X62.94818 Y28.27861
X63.24684 Y28.03708
X63.48509 Y27.91113
X63.48509 Y19.34787
X63.15540 Y19.15194
X62.87140 Y18.89326
X62.64529 Y18.58277
X62.48634 Y18.23307
X62.39284 Y17.78277
X62.38514 Y17.13106
X62.41786 Y16.78394
X62.55692 Y16.34071
X62.75047 Y16.00889
X62.95220 Y15.77480
X62.06470 Y14.88728
X55.70543 Y14.88728
X48.89086 Y21.70184
X48.89086 Y24.67974
X48.86599 Y24.87387
X48.77625 Y25.09048
X48.68294 Y25.21631
X47.47689 Y26.42502
X47.59084 Y26.57966
X47.69678 Y26.80678
X47.74877 Y27.00930
X47.75751 Y27.30145
X47.70971 Y27.54737
X47.63277 Y27.74176
X47.52071 Y27.91834
X47.34984 Y28.10155
X47.07004 Y28.28326
X46.83315 Y28.36482
X46.66798 Y28.39098
X46.33486 Y28.37353
X46.13346 Y28.31730
X45.87616 Y28.17884
X45.71500 Y28.04554
X44.72506 Y27.05560
X44.59176 Y26.89444
X44.45330 Y26.63714
X44.39707 Y26.43574
X44.37962 Y26.10262
X44.42742 Y25.85670
X44.52531 Y25.62601
X44.61642 Y25.48573
X44.78729 Y25.30252
X44.99254 Y25.15878
X45.30397 Y25.03925
X45.46915 Y25.01309
X45.71964 Y25.01746
X46.00367 Y25.08677
X46.19094 Y25.17976
X46.34553 Y25.29366
X47.29086 Y24.34837
X47.29086 Y21.37047
X47.30049 Y21.25315
X47.33854 Y21.10126
X47.44910 Y20.89448
X54.80840 Y13.52157
X54.89811 Y13.44544
X55.03245 Y13.36493
X55.17993 Y13.31215
X55.37406 Y13.28728
X62.39601 Y13.28728
X62.59020 Y13.31215
X62.80688 Y13.40193
X62.96172 Y13.52157
X64.71851 Y15.27836
X64.93200 Y15.34803
X66.82534 Y13.45474
X66.82534 Y12.56744
X66.79364 Y12.34819
X66.82534 Y12.13397
X66.82534 Y10.67159
X66.79253 Y10.45238
X66.79253 Y7.87609
X65.85768 Y6.94122
X65.30208 Y7.48594
X65.23291 Y7.52293
X65.07985 Y7.55336
X65.00180 Y7.54569
X64.85760 Y7.48597
X62.32213 Y4.96134
X62.27237 Y4.90073
X62.21265 Y4.75654
X62.21265 Y4.60045
X62.23541 Y4.52542
X62.32213 Y4.39565
X62.81710 Y3.90068
X61.88225 Y2.96581
X59.30595 Y2.96581
X59.08685 Y2.93299
X57.62940 Y2.93299
X57.41017 Y2.96581
X53.77701 Y2.96581
X53.57569 Y3.16713
X53.47726 Y3.34092
X53.29923 Y3.52017
X53.09215 Y3.63101
X52.83457 Y3.69578
X52.70510 Y3.70523
X52.49728 Y3.67881
X49.69510 Y3.67881
X49.70854 Y3.87046
X49.96073 Y3.95816
X50.22611 Y4.10546
X50.52284 Y4.34943
X50.76436 Y4.64808
X50.94082 Y4.98923
X51.04501 Y5.35895
X51.07264 Y5.74203
X51.02258 Y6.12290
X50.89688 Y6.48584
X50.70071 Y6.81604
X50.44204 Y7.10004
X50.13155 Y7.32615
X49.78184 Y7.48511
X49.33155 Y7.57860
X48.67984 Y7.58630
X48.25345 Y7.53728
X47.88949 Y7.41452
X47.62411 Y7.26722
X47.27164 Y6.96461
X47.04306 Y6.65592
X46.88129 Y6.30756
X46.80521 Y6.01373
X46.77758 Y5.63065
X46.84794 Y5.17145
X46.95335 Y4.88684
X47.14951 Y4.55664
X47.46958 Y4.21991
X47.78946 Y4.00726
X48.09510 Y3.87922
X48.09510 Y3.67881
G04 P0 ( dwell for no time -- G64 should not smooth over this point )
G00 Z5.00000 ( retract )

G00 X54.84647 Y13.28634 ( rapid move to begin. )
F125.00000
G01 Z-0.15000
G04 P0 ( dwell for no time -- G64 should not smooth over this point )
F250.00000
G01 X54.84647 Y13.28634
X46.25325 Y21.87957
X46.16353 Y21.95566
X46.02924 Y22.03618
X45.88172 Y22.08899
X45.68754 Y22.11391
X42.33372 Y22.11391
X42.24462 Y22.35361
X42.13255 Y22.53019
X41.89672 Y22.76603
X41.72016 Y22.87806
X41.44500 Y22.97667
X41.27983 Y23.00283
X41.02933 Y22.99846
X40.70703 Y22.91210
X40.48801 Y22.79069
X40.35801 Y22.68546
X39.33690 Y21.66745
X39.15814 Y21.43626
X39.05220 Y21.20913
X39.00020 Y21.00662
X38.98709 Y20.79793
X39.01763 Y20.54929
X39.11623 Y20.27413
X39.28090 Y20.03260
X39.46411 Y19.86174
X39.67894 Y19.73266
X39.91582 Y19.65110
X40.08100 Y19.62493
X40.41412 Y19.64238
X40.61551 Y19.69862
X40.80279 Y19.79161
X41.03398 Y19.97037
X41.57751 Y20.51391
X45.35617 Y20.51391
X53.71511 Y12.15497
X53.71511 Y8.16636
X53.74002 Y7.97218
X53.79283 Y7.82465
X53.87335 Y7.69036
X53.94945 Y7.60065
X56.02917 Y5.52095
X56.00540 Y5.35707
X56.01635 Y5.10640
X56.08353 Y4.82189
X56.20842 Y4.55753
X56.38554 Y4.32494
X57.29321 Y3.41727
X57.52579 Y3.24016
X57.75033 Y3.12819
X58.07466 Y3.04808
X58.32536 Y3.03713
X58.57347 Y3.07424
X58.88766 Y3.18786
X59.16419 Y3.37526
X59.36465 Y3.58806
X59.47852 Y3.76340
X59.61304 Y4.11381
X59.65012 Y4.40386
X59.63481 Y4.65425
X59.57197 Y4.89718
X59.42617 Y5.19773
X59.26996 Y5.39410
X58.36237 Y6.30169
X58.16603 Y6.45788
X57.86544 Y6.60370
X57.58089 Y6.67091
X57.33024 Y6.68186
X57.15833 Y6.65684
X55.31510 Y8.49773
X55.31510 Y11.68634
X63.25006 Y11.68634
X63.32502 Y11.55850
X63.48461 Y11.36491
X64.33312 Y10.51637
X64.52672 Y10.35678
X64.86121 Y10.18635
X65.14572 Y10.11916
X65.35448 Y10.10821
X65.72527 Y10.16697
X65.99489 Y10.27982
X66.20411 Y10.41827
X66.41112 Y10.62528
X66.54957 Y10.83450
X66.68407 Y11.18490
X66.72118 Y11.43300
X66.69715 Y11.76625
X66.63012 Y12.00798
X66.47261 Y12.30267
X66.31305 Y12.49625
X65.46454 Y13.34478
X65.27096 Y13.50435
X65.01460 Y13.64481
X64.69367 Y13.73760
X64.40132 Y13.75294
X64.07247 Y13.69421
X63.80279 Y13.58136
X63.59357 Y13.44290
X63.43391 Y13.28634
X54.84647 Y13.28634
G04 P0 ( dwell for no time -- G64 should not smooth over this point )
G00 Z5.00000 ( retract )

G00 X58.59770 Y6.58541 ( rapid move to begin. )
F125.00000
G01 Z-0.15000
G04 P0 ( dwell for no time -- G64 should not smooth over this point )
F250.00000
G01 X58.59770 Y6.58541
X58.62820 Y6.37894
X58.70097 Y6.18328
X58.81284 Y6.00700
X58.95889 Y5.85783
X59.09554 Y5.76126
X59.24748 Y5.69123
X59.49097 Y5.63279
X59.65820 Y5.63060
X59.86409 Y5.66542
X60.05815 Y5.74223
X60.29424 Y5.91379
X60.42731 Y6.07464
X60.52403 Y6.25966
X60.58017 Y6.46067
X60.59548 Y6.62727
X60.58017 Y6.79390
X60.52403 Y6.99491
X60.42731 Y7.17993
X60.29424 Y7.34078
X60.09549 Y7.49331
X59.94352 Y7.56334
X59.70006 Y7.62178
X59.53277 Y7.62399
X59.32691 Y7.58914
X59.13285 Y7.51233
X58.89676 Y7.34078
X58.76369 Y7.17993
X58.66696 Y6.99491
X58.61083 Y6.79390
X58.59770 Y6.58541
G04 P0 ( dwell for no time -- G64 should not smooth over this point )
G00 Z5.00000 ( retract )

G00 X62.13325 Y10.12094 ( rapid move to begin. )
F125.00000
G01 Z-0.15000
G04 P0 ( dwell for no time -- G64 should not smooth over this point )
F250.00000
G01 X62.13325 Y10.12094
X62.16376 Y9.91446
X62.23653 Y9.71881
X62.34839 Y9.54253
X62.49444 Y9.39336
X62.63109 Y9.29679
X62.78303 Y9.22676
X63.02652 Y9.16831
X63.19375 Y9.16613
X63.39964 Y9.20095
X63.59370 Y9.27776
X63.82979 Y9.44931
X63.96286 Y9.61017
X64.05959 Y9.79519
X64.11572 Y9.99620
X64.13104 Y10.16280
X64.11572 Y10.32942
X64.05959 Y10.53044
X63.96286 Y10.71545
X63.82979 Y10.87631
X63.63104 Y11.02884
X63.47907 Y11.09887
X63.23561 Y11.15731
X63.06833 Y11.15952
X62.86246 Y11.12467
X62.66840 Y11.04786
X62.43231 Y10.87631
X62.29924 Y10.71545
X62.20252 Y10.53044
X62.14638 Y10.32942
X62.13325 Y10.12094
G04 P0 ( dwell for no time -- G64 should not smooth over this point )
G00 Z5.00000 ( retract )

G00 X57.76615 Y31.25636 ( rapid move to begin. )
F125.00000
G01 Z-0.15000
G04 P0 ( dwell for no time -- G64 should not smooth over this point )
F250.00000
G01 X57.76615 Y31.25636
X53.92633 Y31.25636
X53.74226 Y31.57309
X53.50607 Y31.83870
X53.15511 Y32.10180
X52.83129 Y32.24833
X52.44506 Y32.33936
X51.96517 Y32.33936
X51.57894 Y32.24833
X51.25514 Y32.10180
X50.93378 Y31.86829
X50.69434 Y31.60566
X50.48839 Y31.26641
X50.35748 Y30.89182
X50.30732 Y30.41452
X50.35748 Y30.02088
X50.45438 Y29.72265
X50.66800 Y29.33957
X50.90417 Y29.07399
X51.29246 Y28.79190
X51.65844 Y28.63853
X51.96517 Y28.57333
X52.44506 Y28.57333
X52.83129 Y28.66436
X53.15509 Y28.81090
X53.50607 Y29.07399
X53.74223 Y29.33957
X53.92697 Y29.65636
X57.38546 Y29.65636
X57.43418 Y29.20467
X57.55693 Y28.84071
X57.70423 Y28.57534
X58.00684 Y28.22286
X58.24685 Y28.03708
X58.48510 Y27.91113
X58.48510 Y19.34787
X58.15541 Y19.15194
X57.87141 Y18.89326
X57.60603 Y18.51198
X57.46212 Y18.15590
X57.40100 Y17.85862
X57.38716 Y17.08587
X57.43418 Y16.70467
X57.55693 Y16.34071
X57.75048 Y16.00889
X58.00684 Y15.72286
X58.31553 Y15.49428
X58.66389 Y15.33251
X59.03770 Y15.24420
X59.42167 Y15.23289
X59.72167 Y15.27887
X60.08461 Y15.40457
X60.47882 Y15.65029
X60.75154 Y15.92080
X60.92492 Y16.16990
X61.08388 Y16.51961
X61.16922 Y16.89405
X61.18507 Y17.62161
X61.15235 Y17.96873
X61.01329 Y18.41196
X60.86599 Y18.67734
X60.62203 Y18.97406
X60.32337 Y19.21559
X60.08510 Y19.34157
X60.08510 Y27.90480
X60.41481 Y28.10074
X60.69881 Y28.35941
X60.92492 Y28.66990
X61.08388 Y29.01961
X61.17737 Y29.46990
X61.18507 Y30.12161
X61.15235 Y30.46873
X61.01329 Y30.91196
X60.86599 Y31.17734
X60.62203 Y31.47406
X60.25469 Y31.75839
X59.90633 Y31.92016
X59.61250 Y31.99623
X59.14855 Y32.01978
X58.84855 Y31.97380
X58.48561 Y31.84810
X58.09140 Y31.60238
X57.87141 Y31.39326
X57.76615 Y31.25636
G04 P0 ( dwell for no time -- G64 should not smooth over this point )
G00 Z5.00000 ( retract )

G00 X64.45509 Y33.85638 ( rapid move to begin. )
F125.00000
G01 Z-0.15000
G04 P0 ( dwell for no time -- G64 should not smooth over this point )
F250.00000
G01 X64.45509 Y33.85638
X64.45509 Y37.15634
X64.42466 Y37.30941
X64.33795 Y37.43917
X64.20818 Y37.52589
X64.05509 Y37.55634
X60.75512 Y37.55634
X60.60206 Y37.52589
X60.47229 Y37.43917
X60.38558 Y37.30941
X60.35512 Y37.15634
X60.35512 Y33.85638
X60.38558 Y33.70329
X60.47229 Y33.57352
X60.60206 Y33.48681
X60.75512 Y33.45638
X64.05509 Y33.45638
X64.20818 Y33.48681
X64.33795 Y33.57352
X64.42466 Y33.70329
X64.45509 Y33.85638
G04 P0 ( dwell for no time -- G64 should not smooth over this point )
G00 Z5.00000 ( retract )

G00 X64.45509 Y42.55636 ( rapid move to begin. )
F125.00000
G01 Z-0.15000
G04 P0 ( dwell for no time -- G64 should not smooth over this point )
F250.00000
G01 X64.45509 Y42.55636
X64.45509 Y45.85633
X64.42466 Y46.00939
X64.33795 Y46.13916
X64.20818 Y46.22587
X64.05509 Y46.25633
X60.75512 Y46.25633
X60.60206 Y46.22587
X60.47229 Y46.13916
X60.38558 Y46.00939
X60.35512 Y45.85633
X60.35512 Y42.55636
X60.38558 Y42.40327
X60.47229 Y42.27350
X60.60206 Y42.18679
X60.75512 Y42.15636
X64.05509 Y42.15636
X64.20818 Y42.18679
X64.33795 Y42.27350
X64.42466 Y42.40327
X64.45509 Y42.55636
G04 P0 ( dwell for no time -- G64 should not smooth over this point )
G00 Z5.00000 ( retract )

G00 X50.79510 Y36.15767 ( rapid move to begin. )
F125.00000
G01 Z-0.15000
G04 P0 ( dwell for no time -- G64 should not smooth over this point )
F250.00000
G01 X50.79510 Y36.15767
X44.82686 Y30.18938
X44.57979 Y30.17830
X44.37728 Y30.12631
X44.08013 Y29.97490
X43.91896 Y29.84160
X42.90093 Y28.82047
X42.75023 Y28.62045
X42.65724 Y28.43317
X42.59229 Y28.19081
X42.58356 Y27.89865
X42.63136 Y27.65273
X42.70832 Y27.45832
X42.82036 Y27.28176
X42.99123 Y27.09855
X43.27103 Y26.91684
X43.50791 Y26.83528
X43.75655 Y26.80475
X43.96524 Y26.81786
X44.20761 Y26.88281
X44.39488 Y26.97580
X44.59491 Y27.12649
X45.61604 Y28.14453
X45.74934 Y28.30569
X45.90075 Y28.60284
X45.95274 Y28.80536
X45.96496 Y29.06474
X52.23690 Y35.35035
X52.34747 Y35.55714
X52.38552 Y35.70915
X52.39509 Y35.82635
X52.39509 Y38.62624
X54.94845 Y38.62558
X55.14274 Y38.65045
X55.27584 Y38.69652
X56.18361 Y38.69642
X56.33700 Y38.71204
X56.56331 Y38.77448
X56.77253 Y38.88121
X56.95592 Y39.02784
X57.10608 Y39.20846
X57.24489 Y39.49142
X57.29580 Y39.72075
X57.29950 Y39.95550
X57.27616 Y40.10790
X57.20232 Y40.33084
X57.08513 Y40.53434
X56.92935 Y40.71011
X56.74144 Y40.85088
X56.52894 Y40.95098
X56.30073 Y41.00625
X54.62659 Y41.01628
X54.47322 Y41.00066
X54.24691 Y40.93823
X53.97127 Y40.78527
X53.79852 Y40.62619
X53.70413 Y40.50424
X53.56695 Y40.22568
X51.55585 Y40.22439
X51.32593 Y40.17867
X51.11915 Y40.06810
X51.00307 Y39.96289
X50.87282 Y39.76800
X50.82002 Y39.62047
X50.79705 Y39.46559
X50.79510 Y36.15767
G04 P0 ( dwell for no time -- G64 should not smooth over this point )
G00 Z5.00000 ( retract )

G00 X47.33409 Y34.02038 ( rapid move to begin. )
F125.00000
G01 Z-0.15000
G04 P0 ( dwell for no time -- G64 should not smooth over this point )
F250.00000
G01 X47.33409 Y34.02038
X47.44314 Y34.05252
X47.80206 Y34.22186
X48.08830 Y34.43255
X48.37689 Y34.76285
X48.56770 Y35.11081
X48.68197 Y35.49082
X48.71695 Y35.84449
X48.66460 Y36.27997
X48.53368 Y36.65457
X48.35411 Y36.96125
X48.08832 Y37.25645
X47.76696 Y37.48995
X47.36363 Y37.66231
X47.01555 Y37.73407
X46.66018 Y37.73628
X46.27029 Y37.66231
X45.86699 Y37.48995
X45.51601 Y37.22686
X45.25703 Y36.92614
X45.06623 Y36.57819
X44.96933 Y36.27997
X44.91698 Y35.84449
X44.96933 Y35.40903
X45.10024 Y35.03443
X45.27984 Y34.72772
X45.51462 Y34.46369
X43.03613 Y31.98513
X42.78373 Y31.97434
X42.58122 Y31.92234
X42.28407 Y31.77094
X42.12290 Y31.63764
X41.10490 Y30.61653
X40.99966 Y30.48653
X40.87825 Y30.26751
X40.79189 Y29.94521
X40.78752 Y29.69471
X40.81369 Y29.52954
X40.91229 Y29.25438
X41.02433 Y29.07782
X41.19519 Y28.89461
X41.40045 Y28.75088
X41.71188 Y28.63134
X41.96052 Y28.60081
X42.16921 Y28.61392
X42.41157 Y28.67887
X42.66888 Y28.81732
X42.83004 Y28.95062
X43.81998 Y29.94056
X43.95328 Y30.10172
X44.10469 Y30.39888
X44.15668 Y30.60139
X44.16750 Y30.85377
X47.33409 Y34.02038
G04 P0 ( dwell for no time -- G64 should not smooth over this point )
G00 Z5.00000 ( retract )

G00 X42.16532 Y32.58518 ( rapid move to begin. )
F125.00000
G01 Z-0.15000
G04 P0 ( dwell for no time -- G64 should not smooth over this point )
F250.00000
G01 X42.16532 Y32.58518
X41.11478 Y33.62486
X40.97058 Y33.68460
X40.81450 Y33.68460
X40.67030 Y33.62488
X40.60970 Y33.57512
X39.19548 Y32.16090
X39.10876 Y32.03113
X39.08600 Y31.95610
X39.08600 Y31.80002
X39.10876 Y31.72499
X39.19548 Y31.59522
X40.18544 Y30.60528
X40.31521 Y30.51856
X40.39027 Y30.49580
X40.54632 Y30.49580
X40.62136 Y30.51856
X40.75112 Y30.60528
X42.21505 Y32.08010
X42.27479 Y32.22430
X42.27479 Y32.38036
X42.25204 Y32.45541
X42.16532 Y32.58518
G04 P0 ( dwell for no time -- G64 should not smooth over this point )
G00 Z5.00000 ( retract )

G00 X34.08469 Y30.40180 ( rapid move to begin. )
F125.00000
G01 Z-0.15000
G04 P0 ( dwell for no time -- G64 should not smooth over this point )
F250.00000
G01 X34.08469 Y30.40180
X34.47250 Y30.78966
X34.57588 Y30.75321
X34.88261 Y30.68801
X35.32114 Y30.68145
X35.66922 Y30.75321
X36.03521 Y30.90657
X36.42350 Y31.18867
X36.65967 Y31.45425
X36.83927 Y31.76095
X36.97018 Y32.13555
X37.02035 Y32.52920
X36.97018 Y33.00649
X36.83927 Y33.38109
X36.65969 Y33.68777
X36.39391 Y33.98297
X36.07255 Y34.21647
X35.66922 Y34.38884
X35.32114 Y34.46059
X34.96577 Y34.46280
X34.49637 Y34.36301
X34.13745 Y34.19366
X33.85121 Y33.98297
X33.61177 Y33.72033
X33.37182 Y33.30471
X33.25754 Y32.92470
X33.22256 Y32.57101
X33.25754 Y32.21734
X33.34377 Y31.92364
X32.96552 Y31.54533
X32.81182 Y31.67193
X32.59277 Y31.79336
X32.31215 Y31.87535
X32.10344 Y31.88846
X31.85480 Y31.85793
X31.57967 Y31.75933
X31.33811 Y31.59466
X31.16725 Y31.41145
X31.03816 Y31.19662
X30.95661 Y30.95974
X30.93044 Y30.79456
X30.93918 Y30.50238
X31.00413 Y30.26002
X31.09712 Y30.07277
X31.24787 Y29.87272
X32.26587 Y28.85164
X32.42701 Y28.71834
X32.64616 Y28.59690
X32.92676 Y28.51493
X33.21886 Y28.50620
X33.42503 Y28.54107
X33.62099 Y28.61397
X33.90077 Y28.79568
X34.01901 Y28.91397
X34.16267 Y29.11918
X34.28223 Y29.43066
X34.31273 Y29.67925
X34.30400 Y29.84625
X34.21761 Y30.16853
X34.08469 Y30.40180
G04 P0 ( dwell for no time -- G64 should not smooth over this point )
G00 Z5.00000 ( retract )

G00 X33.49183 Y36.13735 ( rapid move to begin. )
F125.00000
G01 Z-0.15000
G04 P0 ( dwell for no time -- G64 should not smooth over this point )
F250.00000
G01 X33.49183 Y36.13735
X32.92615 Y36.70303
X32.68688 Y36.88837
X32.49028 Y36.98611
X32.19625 Y37.05812
X31.97690 Y37.06744
X31.75970 Y37.03524
X31.51307 Y36.94994
X31.28955 Y36.81522
X31.04627 Y36.57197
X30.92854 Y36.38665
X30.82620 Y36.10179
X30.79399 Y35.88464
X30.80766 Y35.62361
X30.89234 Y35.33301
X31.01856 Y35.10451
X31.15841 Y34.93529
X31.72409 Y34.36961
X31.89331 Y34.22976
X32.12181 Y34.10354
X32.41246 Y34.01886
X32.67347 Y34.00520
X32.89059 Y34.03740
X33.17545 Y34.13974
X33.42574 Y34.31010
X33.60402 Y34.50075
X33.73874 Y34.72427
X33.80242 Y34.89016
X33.85624 Y35.18807
X33.83384 Y35.48995
X33.77494 Y35.70146
X33.67717 Y35.89808
X33.49183 Y36.13735
G04 P0 ( dwell for no time -- G64 should not smooth over this point )
G00 Z5.00000 ( retract )

G00 X28.06896 Y35.87636 ( rapid move to begin. )
F125.00000
G01 Z-0.15000
G04 P0 ( dwell for no time -- G64 should not smooth over this point )
F250.00000
G01 X28.06896 Y35.87636
X14.59509 Y35.87636
X14.40096 Y35.85145
X14.18427 Y35.76166
X14.02944 Y35.64202
X10.78944 Y32.40200
X10.66980 Y32.24716
X10.58001 Y32.03047
X10.55510 Y31.83634
X10.55510 Y20.85635
X10.58001 Y20.66217
X10.66980 Y20.44548
X10.78944 Y20.29064
X14.21511 Y16.86500
X14.21511 Y12.45634
X12.93708 Y12.44865
X12.86205 Y12.42589
X12.73228 Y12.33917
X12.64557 Y12.20940
X12.62281 Y12.13437
X12.61511 Y8.05635
X12.64557 Y7.90327
X12.73228 Y7.77350
X12.79289 Y7.72376
X12.86205 Y7.68678
X13.01511 Y7.65635
X17.01510 Y7.65635
X17.16819 Y7.68678
X17.29796 Y7.77350
X17.38467 Y7.90327
X17.41510 Y8.05635
X17.41510 Y12.05634
X17.38467 Y12.20940
X17.29796 Y12.33917
X17.16819 Y12.42589
X17.09316 Y12.44865
X15.81511 Y12.45634
X15.81511 Y17.19636
X15.79024 Y17.39050
X15.70050 Y17.60711
X15.58082 Y17.76202
X12.15509 Y21.18772
X12.15509 Y31.50492
X14.92651 Y34.27637
X28.40025 Y34.27637
X28.51744 Y34.28594
X28.66946 Y34.32399
X28.87624 Y34.43456
X32.22716 Y37.77458
X32.32043 Y37.90031
X32.38746 Y38.04197
X32.42551 Y38.19399
X32.43509 Y38.40493
X40.72080 Y46.69064
X40.84043 Y46.84548
X40.93022 Y47.06217
X40.95509 Y47.25635
X40.95509 Y50.23737
X41.39016 Y50.44070
X41.72844 Y50.68644
X42.07038 Y51.05312
X42.34759 Y51.52017
X42.50919 Y52.03871
X42.55290 Y52.53815
X42.49181 Y53.03574
X42.36260 Y53.43340
X42.11952 Y53.87191
X41.72847 Y54.30622
X41.31780 Y54.59377
X40.89672 Y54.77886
X40.44729 Y54.87660
X39.94605 Y54.88537
X39.41351 Y54.77886
X38.99243 Y54.59377
X38.54920 Y54.27988
X38.23983 Y53.93955
X37.96261 Y53.47249
X37.81839 Y53.03574
X37.75512 Y52.49632
X37.80102 Y52.03871
X37.96261 Y51.52015
X38.23983 Y51.05312
X38.58174 Y50.68644
X38.91999 Y50.44070
X39.35509 Y50.23742
X39.35509 Y47.58767
X31.06943 Y39.30201
X30.94980 Y39.14717
X30.88277 Y39.00552
X30.84474 Y38.85362
X30.83509 Y38.64252
X28.06896 Y35.87636
G04 P0 ( dwell for no time -- G64 should not smooth over this point )
G00 Z5.00000 ( retract )

G00 X50.10379 Y45.38635 ( rapid move to begin. )
F125.00000
G01 Z-0.15000
G04 P0 ( dwell for no time -- G64 should not smooth over this point )
F250.00000
G01 X50.10379 Y45.38635
X41.36509 Y45.38635
X41.24782 Y45.37670
X41.09593 Y45.33868
X40.95427 Y45.27164
X40.79944 Y45.15201
X36.23544 Y40.57798
X35.67984 Y41.12271
X35.53564 Y41.18245
X35.37956 Y41.18245
X35.30453 Y41.15969
X35.17476 Y41.07297
X33.97268 Y39.87089
X33.92292 Y39.81029
X33.86320 Y39.66609
X33.86320 Y39.51001
X33.88596 Y39.43498
X33.97268 Y39.30521
X36.09398 Y37.18390
X36.22375 Y37.09719
X36.29881 Y37.07443
X36.45487 Y37.07443
X36.52990 Y37.09719
X36.65967 Y37.18390
X37.86175 Y38.38598
X37.94846 Y38.51575
X37.97122 Y38.59078
X37.97122 Y38.74684
X37.91151 Y38.89104
X37.36680 Y39.44661
X41.69651 Y43.78635
X50.43510 Y43.78635
X50.62929 Y43.81122
X50.84597 Y43.90101
X51.00081 Y44.02064
X58.24510 Y51.26493
X58.25279 Y50.41829
X58.27555 Y50.34326
X58.36227 Y50.21349
X58.49203 Y50.12678
X58.56707 Y50.10402
X62.64509 Y50.09635
X62.79817 Y50.12678
X62.92794 Y50.21349
X62.97767 Y50.27410
X63.03742 Y50.41829
X63.04509 Y50.49635
X63.04509 Y54.49634
X63.01466 Y54.64940
X62.97767 Y54.71857
X62.92794 Y54.77917
X62.79817 Y54.86589
X62.64509 Y54.89634
X58.64509 Y54.89634
X58.49203 Y54.86589
X58.42287 Y54.82890
X58.31253 Y54.71857
X58.25279 Y54.57437
X58.24510 Y53.28842
X58.00344 Y53.21862
X57.86915 Y53.13810
X57.77944 Y53.06200
X50.10379 Y45.38635
G04 P0 ( dwell for no time -- G64 should not smooth over this point )
G00 Z5.00000 ( retract )

G00 X53.70129 Y57.76339 ( rapid move to begin. )
F125.00000
G01 Z-0.15000
G04 P0 ( dwell for no time -- G64 should not smooth over this point )
F250.00000
G01 X53.70129 Y57.76339
X53.79588 Y58.03738
X53.83370 Y58.32011
X53.81709 Y58.57319
X53.70131 Y59.28663
X52.59357 Y62.60981
X52.50200 Y62.79602
X52.39685 Y62.92442
X52.26741 Y63.02835
X52.11938 Y63.10326
X51.87607 Y63.15464
X51.71039 Y63.14598
X51.55001 Y63.10328
X51.40185 Y63.02835
X51.27236 Y62.92437
X51.16723 Y62.79594
X51.07569 Y62.60971
X50.53719 Y60.99330
X50.51110 Y61.23021
X50.45123 Y61.38617
X50.36025 Y61.52627
X50.24214 Y61.64436
X50.10208 Y61.73532
X49.94613 Y61.79516
X49.78128 Y61.82129
X49.58700 Y61.82350
X49.58700 Y62.35683
X49.55870 Y62.56353
X49.51788 Y62.68215
X49.45705 Y62.79190
X49.32233 Y62.95131
X49.14974 Y63.06864
X49.03424 Y63.11766
X48.91197 Y63.14588
X48.74519 Y63.15462
X48.58029 Y63.12851
X48.42434 Y63.06864
X48.22210 Y62.92170
X48.07519 Y62.71949
X47.99797 Y62.48190
X47.98700 Y61.78807
X47.85291 Y61.73532
X47.71286 Y61.64436
X47.54560 Y61.45863
X47.44390 Y61.23021
X47.41779 Y60.98167
X47.46976 Y60.73715
X47.59470 Y60.52076
X47.78050 Y60.35345
X47.98700 Y60.25891
X47.98700 Y58.92826
X48.00249 Y58.77469
X48.05873 Y58.59864
X48.26196 Y58.18953
X48.34839 Y58.05414
X48.43549 Y57.95976
X48.61974 Y57.83174
X49.02891 Y57.62849
X49.20493 Y57.57228
X49.35842 Y57.55684
X49.78118 Y57.55902
X49.94613 Y57.58513
X50.12017 Y57.65541
X50.20940 Y57.61317
X50.37038 Y57.56872
X50.53708 Y57.55872
X50.66175 Y57.57304
X50.82123 Y57.62356
X50.93142 Y57.68358
X51.09177 Y57.81701
X51.16805 Y57.91668
X51.26025 Y58.10385
X51.45883 Y58.69968
X52.21041 Y58.69968
X52.40906 Y58.10380
X52.47828 Y57.95148
X52.60736 Y57.78767
X52.73807 Y57.68346
X52.84828 Y57.62346
X52.96720 Y57.58356
X53.21587 Y57.55935
X53.34036 Y57.57558
X53.46009 Y57.61323
X53.60815 Y57.69011
X53.70129 Y57.76339
G04 P0 ( dwell for no time -- G64 should not smooth over this point )
G00 Z5.00000 ( retract )

G00 X53.70129 Y59.28678 ( rapid move to begin. )
F125.00000
G01 Z-0.15000
G04 P0 ( dwell for no time -- G64 should not smooth over this point )
F250.00000
G01 X53.70129 Y59.28678
X53.83337 Y58.40372
X53.81333 Y58.12102
X53.77851 Y57.97170
X53.70129 Y57.76339
X53.70350 Y56.98158
X53.75547 Y56.73720
X53.83129 Y56.58836
X53.93639 Y56.45857
X54.13863 Y56.31163
X54.29458 Y56.25176
X54.45948 Y56.22567
X54.62626 Y56.23439
X54.74853 Y56.26261
X54.86403 Y56.31163
X55.03662 Y56.42892
X55.17134 Y56.58836
X55.23215 Y56.69809
X55.27299 Y56.81673
X55.29910 Y56.98168
X55.30129 Y57.55684
X55.73649 Y57.56276
X55.85780 Y57.58648
X56.00192 Y57.64127
X56.38287 Y57.83174
X56.51812 Y57.91810
X56.80304 Y58.19562
X56.91566 Y58.35188
X57.13438 Y58.78912
X57.20014 Y59.02638
X57.20606 Y60.26158
X57.19061 Y60.41507
X57.15767 Y60.53387
X56.91561 Y61.02846
X56.78129 Y61.20819
X56.59079 Y61.39869
X56.46600 Y61.49978
X55.97375 Y61.75177
X55.79770 Y61.80801
X55.64414 Y61.82350
X54.88224 Y61.82350
X54.69037 Y61.79897
X54.45948 Y61.82129
X54.25415 Y61.78434
X54.10129 Y61.71632
X53.93639 Y61.58838
X53.78948 Y61.38617
X53.72964 Y61.23021
X53.70129 Y61.02351
X53.70129 Y59.28678
G04 P0 ( dwell for no time -- G64 should not smooth over this point )
G00 Z5.00000 ( retract )

G00 X55.45534 Y59.15683 ( rapid move to begin. )
F125.00000
G01 Z-0.15000
G04 P0 ( dwell for no time -- G64 should not smooth over this point )
F250.00000
G01 X55.45534 Y59.15683
X55.30129 Y59.15683
X55.30129 Y60.22351
X55.45526 Y60.22351
X55.55122 Y60.17553
X55.60606 Y60.07276
X55.60606 Y59.30751
X55.55818 Y59.21170
X55.45534 Y59.15683
G04 P0 ( dwell for no time -- G64 should not smooth over this point )
G00 Z5.00000 ( retract )

G00 X58.92033 Y59.65206 ( rapid move to begin. )
F125.00000
G01 Z-0.15000
G04 P0 ( dwell for no time -- G64 should not smooth over this point )
F250.00000
G01 X58.92033 Y59.65206
X59.49549 Y59.65424
X59.66043 Y59.68035
X59.77908 Y59.72120
X59.88881 Y59.78200
X60.04824 Y59.91673
X60.12376 Y60.01698
X60.19955 Y60.16570
X60.25149 Y60.41022
X60.22541 Y60.65876
X60.14654 Y60.85203
X60.01860 Y61.01695
X59.81639 Y61.16387
X59.66043 Y61.22371
X59.45368 Y61.25205
X58.92033 Y61.25205
X58.92033 Y61.55683
X60.15010 Y61.56775
X60.38781 Y61.64497
X60.52787 Y61.73592
X60.61967 Y61.82150
X60.73696 Y61.99409
X60.79683 Y62.15007
X60.82292 Y62.31499
X60.79683 Y62.56353
X60.71796 Y62.75680
X60.64598 Y62.85960
X60.52787 Y62.97768
X60.35050 Y63.08764
X60.15020 Y63.14585
X60.02510 Y63.15683
X58.00306 Y63.14717
X57.85117 Y63.10915
X57.64439 Y62.99858
X57.52831 Y62.89338
X57.39806 Y62.69848
X57.34525 Y62.55096
X57.32033 Y62.35683
X57.32033 Y58.35684
X57.34525 Y58.16265
X57.43504 Y57.94597
X57.52831 Y57.82024
X57.70951 Y57.67149
X57.85117 Y57.60446
X58.08121 Y57.55874
X60.06691 Y57.55902
X60.23186 Y57.58513
X60.35050 Y57.62598
X60.52787 Y57.73593
X60.61967 Y57.82151
X60.73696 Y57.99410
X60.78598 Y58.10959
X60.81420 Y58.23187
X60.82292 Y58.39864
X60.79683 Y58.56354
X60.71796 Y58.75681
X60.64598 Y58.85960
X60.46023 Y59.02684
X60.35050 Y59.08764
X60.15020 Y59.14586
X58.92033 Y59.15683
X58.92033 Y59.65206
G04 P0 ( dwell for no time -- G64 should not smooth over this point )
G00 Z5.00000 ( retract )

G00 X49.91793 Y59.13448 ( rapid move to begin. )
F125.00000
G01 Z-0.15000
G04 P0 ( dwell for no time -- G64 should not smooth over this point )
F250.00000
G01 X49.91793 Y59.13448
X49.78128 Y59.15462
X49.58700 Y59.15683
X49.58700 Y60.22351
X49.86437 Y60.23443
X50.06477 Y60.29265
X50.24214 Y60.40260
X50.39622 Y60.57022
X49.91793 Y59.13448
G04 P0 ( dwell for no time -- G64 should not smooth over this point )
G00 Z5.00000 ( retract )

G00 X41.32034 Y61.36110 ( rapid move to begin. )
F125.00000
G01 Z-0.15000
G04 P0 ( dwell for no time -- G64 should not smooth over this point )
F250.00000
G01 X41.32034 Y61.36110
X41.35780 Y61.04334
X41.32034 Y60.67159
X41.32227 Y58.31757
X41.36801 Y58.08762
X41.43505 Y57.94597
X41.52831 Y57.82024
X41.64439 Y57.71503
X41.77868 Y57.63451
X41.92621 Y57.58170
X42.12034 Y57.55684
X44.06692 Y57.55902
X44.23186 Y57.58513
X44.35051 Y57.62598
X44.46024 Y57.68678
X44.59003 Y57.79189
X44.69519 Y57.92176
X44.77098 Y58.07048
X44.81421 Y58.23187
X44.82292 Y58.39864
X44.78599 Y58.60398
X44.71797 Y58.75681
X44.64599 Y58.85960
X44.52788 Y58.97769
X44.35051 Y59.08764
X44.15020 Y59.14586
X42.92034 Y59.15683
X42.92034 Y59.65206
X43.49547 Y59.65424
X43.66042 Y59.68035
X43.81637 Y59.74020
X44.01858 Y59.88711
X44.12374 Y60.01698
X44.21454 Y60.20481
X44.25147 Y60.41022
X44.22539 Y60.65876
X44.16552 Y60.81472
X44.07454 Y60.95482
X43.95643 Y61.07291
X43.77906 Y61.18287
X43.57875 Y61.24108
X42.92034 Y61.25205
X42.92034 Y61.55683
X44.15010 Y61.56775
X44.35051 Y61.62597
X44.52788 Y61.73592
X44.61967 Y61.82150
X44.73697 Y61.99409
X44.79684 Y62.15007
X44.82292 Y62.31499
X44.81421 Y62.48174
X44.77098 Y62.64309
X44.71797 Y62.75680
X44.59003 Y62.92172
X44.46024 Y63.02683
X44.35051 Y63.08764
X44.23186 Y63.12848
X44.06702 Y63.15462
X42.12034 Y63.15683
X41.92621 Y63.13191
X41.77868 Y63.07910
X41.64439 Y62.99858
X41.52831 Y62.89338
X41.39806 Y62.69848
X41.34526 Y62.55096
X41.32034 Y62.35683
X41.32034 Y61.36110
G04 P0 ( dwell for no time -- G64 should not smooth over this point )
G00 Z5.00000 ( retract )

G00 X38.15842 Y60.13839 ( rapid move to begin. )
F125.00000
G01 Z-0.15000
G04 P0 ( dwell for no time -- G64 should not smooth over this point )
F250.00000
G01 X38.15842 Y60.13839
X38.08710 Y60.46534
X37.88352 Y61.00026
X37.73371 Y61.20814
X37.54323 Y61.39864
X37.41847 Y61.49973
X36.95431 Y61.73902
X36.75009 Y61.80801
X36.59652 Y61.82350
X36.02510 Y61.82350
X35.81149 Y61.79381
X35.66737 Y61.73902
X35.28642 Y61.54855
X35.07844 Y61.39864
X34.88797 Y61.20814
X34.78698 Y61.08345
X34.54768 Y60.61932
X34.49290 Y60.47520
X34.46442 Y60.29249
X34.46516 Y59.07809
X34.65276 Y58.79532
X34.76010 Y58.59585
X34.89515 Y58.16494
X35.07849 Y57.98160
X35.20323 Y57.88056
X35.68385 Y57.63347
X35.90008 Y57.56776
X36.59591 Y57.55684
X36.81019 Y57.58648
X36.95431 Y57.64127
X37.33526 Y57.83174
X37.47064 Y57.91818
X37.75542 Y58.19567
X37.88352 Y58.38000
X38.08674 Y58.78912
X38.14298 Y58.96517
X38.15842 Y59.11873
X38.15842 Y60.13839
G04 P0 ( dwell for no time -- G64 should not smooth over this point )
G00 Z5.00000 ( retract )

G00 X37.89497 Y60.97735 ( rapid move to begin. )
F125.00000
G01 Z-0.15000
G04 P0 ( dwell for no time -- G64 should not smooth over this point )
F250.00000
G01 X37.89497 Y60.97735
X38.08710 Y60.46534
X38.15842 Y60.13834
X38.89078 Y58.08775
X38.98425 Y57.90644
X39.15118 Y57.72808
X39.28915 Y57.64106
X39.44206 Y57.58384
X39.60340 Y57.55892
X39.76624 Y57.56725
X39.92423 Y57.60855
X40.07043 Y57.68107
X40.25471 Y57.84150
X40.38183 Y58.04993
X41.32031 Y60.67154
X41.35145 Y60.88315
X41.35491 Y61.11942
X41.32036 Y61.36100
X41.27889 Y61.43897
X41.17749 Y61.57189
X41.05087 Y61.68063
X40.94292 Y61.74461
X40.82545 Y61.78888
X40.57772 Y61.82216
X40.41219 Y61.80082
X40.29240 Y61.76341
X40.11186 Y61.65856
X39.99052 Y61.54403
X39.91557 Y61.44334
X39.84315 Y61.29254
X39.64419 Y60.73539
X39.42905 Y61.33118
X39.34902 Y61.47768
X39.27066 Y61.57568
X39.10752 Y61.70570
X38.95639 Y61.77730
X38.71067 Y61.82216
X38.54417 Y61.80864
X38.38405 Y61.76072
X38.23759 Y61.68071
X38.05674 Y61.50819
X37.98776 Y61.40336
X37.92413 Y61.24865
X37.89944 Y61.12564
X37.89497 Y60.97735
G04 P0 ( dwell for no time -- G64 should not smooth over this point )
G00 Z5.00000 ( retract )

G00 X36.40765 Y60.22351 ( rapid move to begin. )
F125.00000
G01 Z-0.15000
G04 P0 ( dwell for no time -- G64 should not smooth over this point )
F250.00000
G01 X36.40765 Y60.22351
X36.50356 Y60.17558
X36.55842 Y60.07273
X36.55842 Y59.30751
X36.50361 Y59.20476
X36.40775 Y59.15683
X36.21392 Y59.15683
X36.11118 Y59.21165
X36.06320 Y59.30761
X36.06320 Y60.07266
X36.11806 Y60.17553
X36.21402 Y60.22351
X36.40765 Y60.22351
G04 P0 ( dwell for no time -- G64 should not smooth over this point )
G00 Z5.00000 ( retract )

G00 X34.89521 Y58.16484 ( rapid move to begin. )
F125.00000
G01 Z-0.15000
G04 P0 ( dwell for no time -- G64 should not smooth over this point )
F250.00000
G01 X34.89521 Y58.16484
X34.76010 Y58.59585
X34.65276 Y58.79532
X34.46551 Y59.07756
X34.32708 Y59.12849
X34.16224 Y59.15462
X33.01558 Y59.15683
X33.01558 Y62.35683
X32.98728 Y62.56353
X32.94647 Y62.68215
X32.83648 Y62.85954
X32.71832 Y62.97771
X32.50194 Y63.10265
X32.34055 Y63.14588
X32.17377 Y63.15462
X31.96844 Y63.11766
X31.81558 Y63.04964
X31.65069 Y62.92170
X31.54558 Y62.79190
X31.46976 Y62.64306
X31.41779 Y62.39874
X31.41558 Y58.35684
X31.44050 Y58.16265
X31.53029 Y57.94597
X31.62356 Y57.82024
X31.80476 Y57.67149
X31.94642 Y57.60446
X32.09844 Y57.56641
X34.16214 Y57.55902
X34.32708 Y57.58513
X34.44573 Y57.62598
X34.62310 Y57.73593
X34.71489 Y57.82151
X34.79041 Y57.92176
X34.86620 Y58.07048
X34.89521 Y58.16484
G04 P0 ( dwell for no time -- G64 should not smooth over this point )
G00 Z5.00000 ( retract )

G00 X33.44507 Y5.49636 ( rapid move to begin. )
F125.00000
G01 Z-0.15000
G04 P0 ( dwell for no time -- G64 should not smooth over this point )
F250.00000
G01 X33.44507 Y5.49636
X33.44507 Y8.79633
X33.41464 Y8.94939
X33.32792 Y9.07916
X33.19816 Y9.16587
X33.04507 Y9.19633
X29.74510 Y9.19633
X29.59204 Y9.16587
X29.46227 Y9.07916
X29.37556 Y8.94939
X29.34510 Y8.79633
X29.34510 Y5.49636
X29.37556 Y5.34328
X29.46227 Y5.21351
X29.59204 Y5.12679
X29.74510 Y5.09636
X33.04507 Y5.09636
X33.19816 Y5.12679
X33.32792 Y5.21351
X33.41464 Y5.34328
X33.44507 Y5.49636

G04 P0 ( dwell for no time -- G64 should not smooth over this point )
G00 Z10.000 ( retract )

M5 ( Spindle off. )
M9 ( Coolant off. )
M2 ( Program end. )

