( pcb2gcode 1.3.2 )
( Software-independent Gcode )

G94 ( Millimeters per minute feed rate. )
G21 ( Units == Millimeters. )

G90 ( Absolute coordinates. )
S10000 ( RPM spindle speed. )
F300.00000 ( Feedrate. )

F300.00000 ( Feedrate. )
M3 ( Spindle on clockwise. )
G04 P0 ( dwell for no time -- G64 should not smooth over this point )
G00 Z5.00000 ( retract )

G00 X27.68580 Y39.38169 ( rapid move to begin. )
G01 Z-1.90000 F150.00000 ( plunge. )
G04 P0 ( dwell for no time -- G64 should not smooth over this point )
F300.00000
G01 X27.68580 Y39.38169
X3.09469 Y39.53109
X2.75740 Y39.49675
X2.30177 Y39.38144
X1.88199 Y39.20298
X1.49507 Y38.97123
X1.16967 Y38.71728
X0.84752 Y38.39711
X0.59439 Y38.07588
X0.35748 Y37.67961
X0.17333 Y37.22665
X0.09190 Y36.89638
X0.05286 Y36.54520
X0.05405 Y36.27474
X0.74257 Y25.80359
Z-0.20000
X1.07063 Y20.81436
Z-1.90000 F150.00000
F300.00000
G01 X1.75915 Y10.34322
X1.80363 Y9.93354
X1.87574 Y9.55409
X2.04084 Y8.99034
X2.24688 Y8.50133
X2.47617 Y8.08739
X2.79636 Y7.64078
X8.68865 Y1.29861
X8.97570 Y1.05251
X9.39851 Y0.76823
X9.76594 Y0.57727
X10.21517 Y0.39820
X10.66239 Y0.26841
X11.11042 Y0.17956
X11.54857 Y0.12828
X12.00236 Y0.10996
X37.17541 Y0.08308
Z-0.20000
X42.17541 Y0.07774
Z-1.90000 F150.00000
F300.00000
G01 X67.34846 Y0.05086
X67.56659 Y0.06231
X67.86446 Y0.10940
X68.12829 Y0.18370
X68.38173 Y0.28548
X68.60598 Y0.40168
X68.81325 Y0.53353
X69.01053 Y0.68370
X69.26958 Y0.92484
X69.50128 Y1.19779
X69.63908 Y1.39756
X69.75810 Y1.60508
X69.86346 Y1.83366
X69.99338 Y2.25418
X70.03900 Y2.55824
X70.04825 Y2.76469
X69.90762 Y26.20352
Z-0.20000
X69.87762 Y31.20343
Z-1.90000 F150.00000
F300.00000
G01 X69.73700 Y54.64226
X69.71523 Y54.88811
X69.64543 Y55.15796
X69.58477 Y55.32494
X69.31195 Y56.00015
X69.14302 Y56.36695
X68.82092 Y56.96410
X68.64497 Y57.23283
X68.47863 Y57.45107
X60.96244 Y65.32228
X60.68573 Y65.55895
X60.33313 Y65.81024
X59.95952 Y66.02685
X59.56795 Y66.20744
X59.15099 Y66.35311
X58.86491 Y66.42687
X58.41515 Y66.50094
X58.04261 Y66.52332
X47.31572 Y66.51597
Z-0.20000
X42.31572 Y66.51255
Z-1.90000 F150.00000
F300.00000
G01 X31.58884 Y66.50521
X31.20512 Y66.47165
X30.90596 Y66.39870
X30.48665 Y66.22487
X30.13319 Y66.00221
X29.87703 Y65.79037
X29.68859 Y65.59746
X29.46804 Y65.32197
X29.27932 Y65.02114
X29.12209 Y64.69076
X29.02102 Y64.38705
X28.96253 Y64.10770
X28.93571 Y63.83236
X28.91208 Y40.33548
X28.88010 Y40.16769
X28.80838 Y39.94968
X28.70342 Y39.75583
X28.57266 Y39.61042
X28.38158 Y39.49406
X28.22941 Y39.44179
X28.01574 Y39.40097
X27.68580 Y39.38169

G04 P0 ( dwell for no time -- G64 should not smooth over this point )
G00 Z10.000 ( retract )

M5 ( Spindle off. )
M9 ( Coolant off. )
M2 ( Program end. )

