( pcb2gcode 1.3.2 )
( Software-independent Gcode )

G94 ( Millimeters per minute feed rate. )
G21 ( Units == Millimeters. )

G90 ( Absolute coordinates. )
S10000 ( RPM spindle speed. )
F250.00000 ( Feedrate. )

F250.00000 ( Feedrate. )
M3 ( Spindle on clockwise. )
G04 P0 ( dwell for no time -- G64 should not smooth over this point )
G00 Z5.00000 ( retract )

G00 X6.03894 Y16.11642 ( rapid move to begin. )
F125.00000
G01 Z-0.15000
G04 P0 ( dwell for no time -- G64 should not smooth over this point )
F250.00000
G01 X6.03894 Y16.11642
X6.47130 Y15.90039
X6.64732 Y15.84418
X6.80081 Y15.82874
X7.65506 Y15.83466
X7.89233 Y15.90042
X8.38458 Y16.15241
X8.50937 Y16.25350
X8.76327 Y16.51652
X8.84970 Y16.65185
X9.04020 Y17.03280
X9.10919 Y17.23709
X9.12463 Y17.39064
X9.11871 Y18.24486
X9.05298 Y18.48207
X8.80093 Y18.97435
X8.69989 Y19.09909
X8.43685 Y19.35304
X8.30144 Y19.43950
X7.92049 Y19.62998
X7.77637 Y19.68476
X7.65524 Y19.70846
X6.80081 Y19.71446
X6.64729 Y19.69896
X6.47125 Y19.64273
X6.03896 Y19.42673
X5.63480 Y19.62998
X5.49068 Y19.68476
X5.30795 Y19.71324
X5.05560 Y19.71324
X4.81415 Y19.66599
X4.31971 Y19.42401
X4.16345 Y19.31138
X3.88593 Y19.02647
X3.79957 Y18.89122
X3.60910 Y18.51027
X3.54011 Y18.30605
X3.52462 Y18.15253
X3.52462 Y17.39064
X3.54011 Y17.23707
X3.59635 Y17.06102
X3.79957 Y16.65190
X3.88601 Y16.51652
X4.13991 Y16.25350
X4.26465 Y16.15246
X4.72878 Y15.91317
X4.93302 Y15.84418
X5.27701 Y15.82874
X5.49068 Y15.85838
X5.63480 Y15.91317
X6.03894 Y16.11642
G04 P0 ( dwell for no time -- G64 should not smooth over this point )
G00 Z5.00000 ( retract )

G00 X5.12461 Y17.57951 ( rapid move to begin. )
F125.00000
G01 Z-0.15000
G04 P0 ( dwell for no time -- G64 should not smooth over this point )
F250.00000
G01 X5.12461 Y17.57951
X5.12461 Y17.96361
X5.18199 Y18.06755
X5.23891 Y17.96369
X5.23891 Y17.57941
X5.18410 Y17.47667
X5.12461 Y17.57951
G04 P0 ( dwell for no time -- G64 should not smooth over this point )
G00 Z5.00000 ( retract )

G00 X7.52464 Y17.57946 ( rapid move to begin. )
F125.00000
G01 Z-0.15000
G04 P0 ( dwell for no time -- G64 should not smooth over this point )
F250.00000
G01 X7.52464 Y17.57946
X7.47668 Y17.48355
X7.37394 Y17.42874
X6.98963 Y17.42874
X6.89378 Y17.47667
X6.83891 Y17.57951
X6.83891 Y17.96361
X6.88689 Y18.05957
X6.98974 Y18.11446
X7.37384 Y18.11446
X7.46977 Y18.06650
X7.52464 Y17.96366
X7.52464 Y17.57946
G04 P0 ( dwell for no time -- G64 should not smooth over this point )
G00 Z5.00000 ( retract )

G00 X9.10010 Y20.81773 ( rapid move to begin. )
F125.00000
G01 Z-0.15000
G04 P0 ( dwell for no time -- G64 should not smooth over this point )
F250.00000
G01 X9.10010 Y20.81773
X9.12463 Y21.00968
X9.12463 Y21.77160
X9.09499 Y21.98522
X9.04020 Y22.12939
X8.80083 Y22.59355
X8.69984 Y22.71821
X8.50937 Y22.90868
X8.30144 Y23.05854
X7.89233 Y23.26177
X7.71628 Y23.31801
X7.56271 Y23.33350
X6.38895 Y23.33228
X6.20625 Y23.30381
X6.06213 Y23.24902
X5.65299 Y23.04300
X5.47325 Y22.90868
X5.28278 Y22.71821
X5.18174 Y22.59347
X4.92969 Y22.10117
X4.86396 Y21.86408
X4.85797 Y21.42873
X4.19955 Y21.41775
X3.99929 Y21.35956
X3.88954 Y21.29873
X3.75975 Y21.19363
X3.63181 Y21.02873
X3.55294 Y20.83543
X3.52683 Y20.58690
X3.57880 Y20.34237
X3.65459 Y20.19365
X3.73013 Y20.09340
X3.82190 Y20.00783
X3.96195 Y19.91687
X4.19967 Y19.83965
X4.32462 Y19.82873
X8.32463 Y19.82873
X8.44963 Y19.83965
X8.65003 Y19.89787
X8.82740 Y20.00783
X8.94556 Y20.12599
X9.03649 Y20.26599
X9.09636 Y20.42197
X9.12245 Y20.58690
X9.10010 Y20.81773
G04 P0 ( dwell for no time -- G64 should not smooth over this point )
G00 Z5.00000 ( retract )

G00 X6.45796 Y21.42873 ( rapid move to begin. )
F125.00000
G01 Z-0.15000
G04 P0 ( dwell for no time -- G64 should not smooth over this point )
F250.00000
G01 X6.45796 Y21.42873
X6.45796 Y21.58268
X6.50594 Y21.67864
X6.60879 Y21.73350
X7.37384 Y21.73350
X7.46980 Y21.68552
X7.52464 Y21.58278
X7.52464 Y21.42873
X6.45796 Y21.42873
G04 P0 ( dwell for no time -- G64 should not smooth over this point )
G00 Z5.00000 ( retract )

G00 X5.18938 Y24.89529 ( rapid move to begin. )
F125.00000
G01 Z-0.15000
G04 P0 ( dwell for no time -- G64 should not smooth over this point )
F250.00000
G01 X5.18938 Y24.89529
X5.05169 Y25.03027
X4.92596 Y25.12354
X4.78431 Y25.19057
X4.63229 Y25.22862
X4.47600 Y25.23629
X4.32096 Y25.21333
X4.17354 Y25.16057
X4.03904 Y25.07998
X3.68286 Y24.72372
X3.60234 Y24.58943
X3.54872 Y24.44208
X3.52657 Y24.28702
X3.54806 Y24.05862
X3.59480 Y23.92283
X3.67829 Y23.77820
X3.75896 Y23.68206
X4.03915 Y23.41546
X4.17349 Y23.33495
X4.32103 Y23.28217
X4.47600 Y23.25920
X4.70927 Y23.28217
X4.85680 Y23.33497
X4.99109 Y23.41549
X5.19027 Y23.60144
X5.18938 Y24.89529
G04 P0 ( dwell for no time -- G64 should not smooth over this point )
G00 Z5.00000 ( retract )

G00 X5.21791 Y24.91467 ( rapid move to begin. )
F125.00000
G01 Z-0.15000
G04 P0 ( dwell for no time -- G64 should not smooth over this point )
F250.00000
G01 X5.21791 Y24.91467
X5.75606 Y24.91848
X5.98275 Y24.95448
X6.13226 Y24.99936
X6.25131 Y25.04775
X6.27887 Y25.07835
X6.36982 Y25.21841
X6.42255 Y25.35255
X7.84554 Y25.35846
X8.08280 Y25.42422
X8.57510 Y25.67627
X8.72161 Y25.80091
X8.83416 Y25.95701
X9.05295 Y26.39433
X9.10919 Y26.57042
X9.12463 Y26.72397
X9.11371 Y27.22986
X9.05552 Y27.43024
X8.99469 Y27.53999
X8.85996 Y27.69940
X8.75971 Y27.77494
X8.61099 Y27.85074
X8.36647 Y27.90271
X8.11793 Y27.87659
X7.88951 Y27.77489
X7.75974 Y27.66979
X7.65463 Y27.53999
X7.59380 Y27.43024
X7.55298 Y27.31162
X7.52684 Y27.14683
X7.52464 Y26.95254
X6.45796 Y26.95254
X6.44704 Y27.22986
X6.38885 Y27.43024
X6.27887 Y27.60763
X6.19329 Y27.69940
X6.09304 Y27.77494
X5.90521 Y27.86575
X5.78293 Y27.89397
X5.61616 Y27.90271
X5.41082 Y27.86575
X5.22284 Y27.77489
X5.03711 Y27.60763
X4.92713 Y27.43024
X4.86894 Y27.22999
X4.85797 Y26.95254
X4.28271 Y26.95033
X4.11791 Y26.92420
X3.96195 Y26.86435
X3.75975 Y26.71744
X3.63181 Y26.55254
X3.56378 Y26.39969
X3.52683 Y26.19435
X3.53557 Y26.02758
X3.57880 Y25.86618
X3.70374 Y25.64980
X3.82190 Y25.53164
X3.99929 Y25.42166
X4.19967 Y25.36347
X4.89340 Y25.35255
X4.94615 Y25.21841
X5.03711 Y25.07835
X5.21791 Y24.91467
G04 P0 ( dwell for no time -- G64 should not smooth over this point )
G00 Z5.00000 ( retract )

G00 X6.25136 Y25.04777 ( rapid move to begin. )
F125.00000
G01 Z-0.15000
G04 P0 ( dwell for no time -- G64 should not smooth over this point )
F250.00000
G01 X6.25136 Y25.04777
X6.04864 Y24.97218
X5.83968 Y24.92727
X5.21859 Y24.91462
X5.18928 Y24.89336
X5.18207 Y23.78166
X5.19025 Y23.60144
X5.22289 Y23.57772
X5.33264 Y23.51689
X5.45126 Y23.47607
X5.65796 Y23.44777
X8.32463 Y23.44777
X8.44963 Y23.45870
X8.65003 Y23.51691
X8.82740 Y23.62687
X8.91920 Y23.71244
X8.99471 Y23.81270
X9.08552 Y24.00053
X9.11374 Y24.12280
X9.12245 Y24.28958
X9.09636 Y24.45448
X9.03649 Y24.61043
X8.88955 Y24.81267
X8.75976 Y24.91777
X8.61092 Y24.99359
X8.44973 Y25.03680
X8.32463 Y25.04777
X6.25136 Y25.04777
G04 P0 ( dwell for no time -- G64 should not smooth over this point )
G00 Z5.00000 ( retract )

G00 X24.59509 Y5.14636 ( rapid move to begin. )
F125.00000
G01 Z-0.15000
G04 P0 ( dwell for no time -- G64 should not smooth over this point )
F250.00000
G01 X24.59509 Y5.14636
X24.59509 Y8.64633
X24.56466 Y8.79939
X24.47794 Y8.92916
X24.34817 Y9.01587
X24.19509 Y9.04633
X20.69512 Y9.04633
X20.54206 Y9.01587
X20.41229 Y8.92916
X20.32557 Y8.79939
X20.29512 Y8.64633
X20.29512 Y5.14636
X20.32557 Y4.99328
X20.41229 Y4.86351
X20.54206 Y4.77679
X20.69512 Y4.74636
X24.19509 Y4.74636
X24.34817 Y4.77679
X24.47794 Y4.86351
X24.56466 Y4.99328
X24.59509 Y5.14636
G04 P0 ( dwell for no time -- G64 should not smooth over this point )
G00 Z5.00000 ( retract )

G00 X33.29507 Y5.14636 ( rapid move to begin. )
F125.00000
G01 Z-0.15000
G04 P0 ( dwell for no time -- G64 should not smooth over this point )
F250.00000
G01 X33.29507 Y5.14636
X33.29507 Y8.64633
X33.26464 Y8.79939
X33.17792 Y8.92916
X33.04816 Y9.01587
X32.89507 Y9.04633
X29.39510 Y9.04633
X29.24204 Y9.01587
X29.11227 Y8.92916
X29.02556 Y8.79939
X28.99510 Y8.64633
X28.99510 Y5.14636
X29.02556 Y4.99328
X29.11227 Y4.86351
X29.24204 Y4.77679
X29.39510 Y4.74636
X32.89507 Y4.74636
X33.04816 Y4.77679
X33.17792 Y4.86351
X33.26464 Y4.99328
X33.29507 Y5.14636
G04 P0 ( dwell for no time -- G64 should not smooth over this point )
G00 Z5.00000 ( retract )

G00 X38.30296 Y18.21852 ( rapid move to begin. )
F125.00000
G01 Z-0.15000
G04 P0 ( dwell for no time -- G64 should not smooth over this point )
F250.00000
G01 X38.30296 Y18.21852
X38.30296 Y21.17717
X38.60773 Y21.26170
X38.82676 Y21.38311
X38.98792 Y21.51641
X39.97788 Y22.50637
X40.11118 Y22.66754
X40.24964 Y22.92484
X40.31459 Y23.16721
X40.32769 Y23.37589
X40.29716 Y23.62453
X40.19859 Y23.89967
X40.08652 Y24.07625
X39.91565 Y24.25946
X39.71040 Y24.40319
X39.39897 Y24.52273
X39.15033 Y24.55326
X38.94164 Y24.54015
X38.69927 Y24.47520
X38.44197 Y24.33675
X38.28081 Y24.20345
X37.29084 Y23.21348
X37.15755 Y23.05232
X37.01909 Y22.79502
X36.95414 Y22.55265
X36.94332 Y22.30028
X36.86120 Y22.20452
X36.78069 Y22.07023
X36.72788 Y21.92271
X36.70492 Y21.76782
X36.70296 Y17.88715
X36.71259 Y17.76983
X36.75064 Y17.61794
X36.81767 Y17.47628
X36.93730 Y17.32145
X38.57784 Y15.69453
X38.78462 Y15.58398
X38.93664 Y15.54594
X39.45388 Y15.53636
X39.63798 Y15.21957
X39.90377 Y14.92437
X40.22513 Y14.69090
X40.54893 Y14.54436
X41.01832 Y14.44459
X41.37369 Y14.44678
X41.72177 Y14.51853
X42.16020 Y14.71370
X42.44643 Y14.92440
X42.71222 Y15.21957
X42.89182 Y15.52628
X43.02274 Y15.90087
X43.07508 Y16.33633
X43.04011 Y16.69003
X42.92583 Y17.07004
X42.71225 Y17.45309
X42.44646 Y17.74829
X42.16020 Y17.95899
X41.80127 Y18.12833
X41.37369 Y18.22591
X41.01832 Y18.22812
X40.62843 Y18.15416
X40.22513 Y17.98180
X39.90377 Y17.74829
X39.63798 Y17.45309
X39.45327 Y17.13636
X39.38515 Y17.13636
X38.30296 Y18.21852
G04 P0 ( dwell for no time -- G64 should not smooth over this point )
G00 Z5.00000 ( retract )

G00 X43.51636 Y20.26391 ( rapid move to begin. )
F125.00000
G01 Z-0.15000
G04 P0 ( dwell for no time -- G64 should not smooth over this point )
F250.00000
G01 X43.51636 Y20.26391
X43.53932 Y20.12904
X43.67023 Y19.75444
X43.84984 Y19.44773
X44.14816 Y19.12619
X44.43698 Y18.91906
X44.84028 Y18.74669
X45.23017 Y18.67275
X45.62690 Y18.68149
X46.01313 Y18.77252
X46.33693 Y18.91906
X46.65829 Y19.15256
X46.92407 Y19.44773
X47.10368 Y19.75444
X47.23459 Y20.12904
X47.28694 Y20.56449
X47.25196 Y20.91819
X47.10368 Y21.37457
X46.92410 Y21.68125
X46.68790 Y21.94686
X46.33695 Y22.20996
X45.93363 Y22.38232
X45.54371 Y22.45628
X45.23017 Y22.45628
X44.84028 Y22.38232
X44.43698 Y22.20996
X44.11562 Y21.97645
X44.01135 Y21.86391
X42.08372 Y21.86391
X41.99462 Y22.10361
X41.88255 Y22.28019
X41.64672 Y22.51603
X41.47016 Y22.62806
X41.27575 Y22.70503
X40.94636 Y22.75720
X40.73768 Y22.74409
X40.49531 Y22.67914
X40.23801 Y22.54069
X40.07684 Y22.40739
X39.08690 Y21.41745
X38.95360 Y21.25629
X38.81515 Y20.99899
X38.74583 Y20.71496
X38.74146 Y20.46447
X38.76763 Y20.29929
X38.86623 Y20.02413
X38.97827 Y19.84758
X39.14913 Y19.66437
X39.39069 Y19.49967
X39.58507 Y19.42274
X39.83100 Y19.37493
X40.16412 Y19.39238
X40.36551 Y19.44862
X40.55279 Y19.54161
X40.78398 Y19.72037
X41.32751 Y20.26391
X43.51636 Y20.26391
G04 P0 ( dwell for no time -- G64 should not smooth over this point )
G00 Z5.00000 ( retract )

G00 X52.55391 Y15.82371 ( rapid move to begin. )
F125.00000
G01 Z-0.15000
G04 P0 ( dwell for no time -- G64 should not smooth over this point )
F250.00000
G01 X52.55391 Y15.82371
X53.20079 Y16.47065
X53.27689 Y16.56036
X53.35741 Y16.69465
X53.41022 Y16.84217
X53.43318 Y16.99722
X53.43508 Y17.54083
X53.72355 Y17.63765
X53.96688 Y17.78208
X54.12043 Y17.91388
X54.34285 Y18.20125
X54.46008 Y18.45883
X54.51077 Y18.65472
X54.53328 Y18.93671
X54.49856 Y19.21756
X54.40798 Y19.48568
X54.26531 Y19.73003
X54.07638 Y19.94067
X53.84890 Y20.10897
X53.59216 Y20.22807
X53.31677 Y20.29302
X52.13697 Y20.30633
X51.81403 Y20.26752
X51.54665 Y20.17503
X51.30331 Y20.03061
X51.14977 Y19.89881
X50.97017 Y19.68014
X50.81012 Y19.35385
X50.74718 Y19.07803
X50.74101 Y18.79513
X50.77164 Y18.59513
X50.86222 Y18.32701
X51.00489 Y18.08266
X51.25523 Y17.81931
X51.49209 Y17.66440
X51.67804 Y17.58462
X51.83509 Y17.54400
X51.83509 Y17.36767
X51.42516 Y16.95767
X51.32178 Y16.99414
X50.97370 Y17.06590
X50.53517 Y17.05934
X50.22844 Y16.99414
X49.86245 Y16.84078
X49.47416 Y16.55868
X49.21518 Y16.25797
X49.02437 Y15.91002
X48.92747 Y15.61180
X48.87731 Y15.13451
X48.92747 Y14.74086
X49.02437 Y14.44264
X49.23799 Y14.05955
X49.53631 Y13.73801
X49.86245 Y13.51188
X50.22844 Y13.35851
X50.53517 Y13.29331
X50.97370 Y13.28676
X51.40128 Y13.38434
X51.72508 Y13.53088
X52.01390 Y13.73801
X52.09028 Y13.80977
X53.06511 Y12.83497
X53.07280 Y11.68831
X53.09556 Y11.61328
X53.18228 Y11.48351
X53.31205 Y11.39679
X53.46511 Y11.36637
X55.96508 Y11.36637
X56.11816 Y11.39679
X56.24793 Y11.48351
X56.33465 Y11.61328
X56.36508 Y11.76636
X56.36508 Y12.86634
X56.33465 Y13.01940
X56.24793 Y13.14917
X56.11816 Y13.23588
X55.96508 Y13.26634
X54.89647 Y13.26634
X52.64100 Y15.52181
X52.55391 Y15.82371
G04 P0 ( dwell for no time -- G64 should not smooth over this point )
G00 Z5.00000 ( retract )

G00 X46.70358 Y9.63635 ( rapid move to begin. )
F125.00000
G01 Z-0.15000
G04 P0 ( dwell for no time -- G64 should not smooth over this point )
F250.00000
G01 X46.70358 Y9.63635
X46.89951 Y9.30663
X47.15819 Y9.02263
X47.46868 Y8.79652
X47.81838 Y8.63757
X48.26867 Y8.54407
X48.92036 Y8.53637
X49.26750 Y8.56909
X49.63636 Y8.67625
X49.97611 Y8.85545
X50.27284 Y9.09942
X50.51436 Y9.39807
X50.69082 Y9.73922
X50.79501 Y10.10894
X50.82264 Y10.49202
X50.75229 Y10.95123
X50.64688 Y11.23583
X50.45071 Y11.56603
X50.13065 Y11.90276
X49.88155 Y12.07614
X49.53184 Y12.23510
X49.08155 Y12.32859
X48.42984 Y12.33629
X48.08272 Y12.30357
X47.63949 Y12.16451
X47.37411 Y12.01721
X47.07739 Y11.77325
X46.83586 Y11.47459
X46.70990 Y11.23634
X38.14665 Y11.23634
X37.95071 Y11.56603
X37.69204 Y11.85003
X37.38155 Y12.07614
X37.03184 Y12.23510
X36.58155 Y12.32859
X35.88465 Y12.33428
X35.58272 Y12.30357
X35.46700 Y12.27586
X34.35509 Y13.38772
X34.35509 Y14.62173
X34.50507 Y14.69090
X34.82643 Y14.92440
X35.09222 Y15.21957
X35.30583 Y15.60265
X35.42011 Y15.98266
X35.45290 Y16.37817
X35.40274 Y16.77182
X35.30583 Y17.07004
X35.09225 Y17.45309
X34.82646 Y17.74829
X34.50510 Y17.98180
X34.10177 Y18.15416
X33.75369 Y18.22591
X33.31516 Y18.21936
X32.92893 Y18.12833
X32.57000 Y17.95899
X32.28377 Y17.74829
X32.04432 Y17.48566
X31.83838 Y17.14641
X31.70747 Y16.77182
X31.65730 Y16.37817
X31.70747 Y15.90087
X31.83838 Y15.52628
X32.04432 Y15.18703
X32.31631 Y14.89803
X32.60513 Y14.69090
X32.75509 Y14.62176
X32.75509 Y13.05635
X32.76472 Y12.93903
X32.80277 Y12.78714
X32.86980 Y12.64548
X32.98943 Y12.49065
X34.22105 Y11.25908
X34.13129 Y11.05755
X34.04297 Y10.68374
X34.03167 Y10.29977
X34.09794 Y9.92144
X34.23898 Y9.56418
X34.44907 Y9.24262
X34.71958 Y8.96990
X35.03946 Y8.75725
X35.39555 Y8.61334
X35.76867 Y8.54407
X36.42036 Y8.53637
X36.84678 Y8.58540
X37.21073 Y8.70815
X37.54256 Y8.90170
X37.82859 Y9.15806
X38.01436 Y9.39807
X38.14035 Y9.63635
X46.70358 Y9.63635
G04 P0 ( dwell for no time -- G64 should not smooth over this point )
G00 Z5.00000 ( retract )

G00 X47.84510 Y3.42881 ( rapid move to begin. )
F125.00000
G01 Z-0.15000
G04 P0 ( dwell for no time -- G64 should not smooth over this point )
F250.00000
G01 X47.84510 Y3.42881
X36.99509 Y3.42881
X36.99509 Y3.63191
X37.21073 Y3.70816
X37.54256 Y3.90171
X37.82859 Y4.15807
X38.05716 Y4.46676
X38.21893 Y4.81512
X38.29501 Y5.10895
X38.31855 Y5.57290
X38.25229 Y5.95124
X38.11124 Y6.30849
X37.95071 Y6.56604
X37.69204 Y6.85004
X37.31076 Y7.11542
X36.95468 Y7.25934
X36.58155 Y7.32860
X35.92984 Y7.33630
X35.58272 Y7.30358
X35.13949 Y7.16452
X34.80766 Y6.97097
X34.52163 Y6.71461
X34.29306 Y6.40592
X34.13129 Y6.05756
X34.04297 Y5.68375
X34.03167 Y5.29978
X34.07764 Y4.99978
X34.20335 Y4.63684
X34.39951 Y4.30664
X34.65819 Y4.02264
X34.96867 Y3.79653
X35.39293 Y3.61421
X35.39509 Y3.44588
X27.03509 Y3.68454
X27.03509 Y9.42728
X29.67006 Y12.06225
X29.84224 Y12.13477
X29.97310 Y12.21633
X30.14887 Y12.37210
X30.32893 Y12.63080
X30.41397 Y12.84973
X30.44501 Y13.00073
X30.45710 Y14.63334
X30.43942 Y14.82823
X30.37699 Y15.05455
X30.22403 Y15.33019
X30.06495 Y15.50293
X29.94301 Y15.59732
X29.66005 Y15.73613
X29.51077 Y15.77479
X29.27676 Y15.79483
X28.96521 Y15.74710
X28.82063 Y15.69356
X28.61713 Y15.57636
X28.38868 Y15.35922
X28.26130 Y15.16189
X28.20049 Y15.02018
X28.13704 Y14.71243
X28.13313 Y13.15935
X28.15081 Y12.96446
X28.18218 Y12.83718
X25.66943 Y10.32438
X25.54980 Y10.16954
X25.48277 Y10.02789
X25.44474 Y9.87599
X25.43509 Y9.75872
X25.43509 Y3.73026
X21.16474 Y3.85218
X19.84511 Y5.16772
X19.84511 Y24.68077
X19.87511 Y24.93494
X19.94651 Y25.00634
X28.23056 Y25.00634
X28.42475 Y25.03121
X28.64143 Y25.12100
X28.79627 Y25.24063
X30.29048 Y26.73489
X30.84610 Y26.19016
X30.91524 Y26.15320
X31.06833 Y26.12277
X31.22139 Y26.15320
X31.29055 Y26.19019
X32.48252 Y27.37129
X32.56924 Y27.50105
X32.59200 Y27.57609
X32.59200 Y27.73214
X32.56924 Y27.80720
X32.48252 Y27.93697
X30.36119 Y30.05828
X30.23142 Y30.14499
X30.07836 Y30.17542
X29.92528 Y30.14499
X29.79551 Y30.05828
X28.61438 Y28.86630
X28.55467 Y28.72211
X28.54700 Y28.64405
X28.57743 Y28.49099
X28.61441 Y28.42183
X29.15911 Y27.86626
X27.89925 Y26.60634
X19.58783 Y26.60499
X16.54387 Y29.64890
X16.63013 Y29.94266
X16.66292 Y30.25452
X16.61276 Y30.73181
X16.51585 Y31.03003
X16.32505 Y31.37798
X16.00392 Y31.73465
X15.71512 Y31.94179
X15.39129 Y32.08832
X14.96371 Y32.18591
X14.60834 Y32.18812
X14.21845 Y32.11415
X13.81515 Y31.94179
X13.49379 Y31.70829
X13.25434 Y31.44565
X13.01439 Y31.03003
X12.90011 Y30.65002
X12.86514 Y30.29632
X12.90011 Y29.94266
X13.01439 Y29.56265
X13.25434 Y29.14703
X13.49379 Y28.88436
X13.78002 Y28.67370
X14.21845 Y28.47852
X14.52518 Y28.41332
X14.92188 Y28.40458
X15.31179 Y28.47852
X15.41509 Y28.51495
X18.25509 Y25.67500
X18.25474 Y4.71903
X18.29279 Y4.56714
X18.40335 Y4.36036
X18.91153 Y3.83862
X18.89197 Y3.64088
X18.90190 Y3.55010
X18.94051 Y3.42635
X19.02334 Y3.29790
X20.83131 Y1.65120
X20.93705 Y1.59361
X21.12727 Y1.55790
X52.78599 Y1.52409
X52.97644 Y1.34723
X53.11078 Y1.26674
X53.25825 Y1.21396
X53.45238 Y1.18907
X60.42501 Y1.19867
X60.57703 Y1.23672
X60.78381 Y1.34726
X61.29651 Y1.84634
X62.69410 Y1.84634
X62.81129 Y1.85592
X62.96331 Y1.89397
X63.10497 Y1.96100
X63.23070 Y2.05427
X63.69846 Y2.51929
X64.25406 Y1.97459
X64.32320 Y1.93763
X64.47629 Y1.90720
X64.62935 Y1.93763
X64.69851 Y1.97461
X67.28372 Y4.55983
X67.32071 Y4.62899
X67.35113 Y4.78205
X67.32071 Y4.93514
X67.28375 Y5.00427
X66.73905 Y5.55985
X67.93460 Y6.75817
X68.06485 Y6.95306
X68.13295 Y7.17758
X68.14252 Y10.01580
X68.17534 Y10.23518
X68.17534 Y13.53611
X68.15047 Y13.73024
X68.06073 Y13.94685
X67.94105 Y14.10177
X65.81535 Y16.22742
X65.85810 Y16.34677
X65.92736 Y16.71990
X65.93506 Y17.37161
X65.90234 Y17.71873
X65.79518 Y18.08759
X65.61598 Y18.42734
X65.37202 Y18.72406
X65.07336 Y18.96559
X64.83509 Y19.09157
X64.83509 Y27.65480
X65.16480 Y27.85074
X65.44880 Y28.10941
X65.67491 Y28.41990
X65.83387 Y28.76961
X65.92736 Y29.21990
X65.93506 Y29.87161
X65.90234 Y30.21873
X65.81492 Y30.52470
X67.50554 Y32.21537
X67.62518 Y32.37021
X67.69221 Y32.51187
X67.73026 Y32.66388
X67.73983 Y32.78108
X67.73026 Y36.50406
X67.66218 Y36.72852
X67.58167 Y36.86286
X67.50554 Y36.95257
X64.41769 Y40.02679
X64.21091 Y40.13735
X64.05902 Y40.17540
X63.94169 Y40.18503
X60.01379 Y40.18503
X59.81965 Y40.16011
X59.60297 Y40.07032
X59.44813 Y39.95069
X57.41973 Y37.92229
X56.71529 Y37.92229
X56.61798 Y38.01277
X56.42065 Y38.14015
X56.20173 Y38.22519
X55.97120 Y38.26441
X54.41812 Y38.26832
X54.22322 Y38.25064
X53.99691 Y38.18821
X53.78769 Y38.08148
X53.54852 Y37.87617
X53.45413 Y37.75422
X53.34344 Y37.54714
X53.26442 Y37.24193
X53.26071 Y37.00718
X53.28406 Y36.85478
X53.39353 Y36.55920
X53.52464 Y36.36431
X53.63087 Y36.25257
X53.88957 Y36.07251
X54.10849 Y35.98747
X54.33902 Y35.94826
X55.89208 Y35.94435
X56.08700 Y35.96202
X56.38771 Y36.05636
X56.58895 Y36.17742
X56.74818 Y36.32230
X57.79019 Y36.32420
X57.94524 Y36.34716
X58.16192 Y36.43695
X58.31676 Y36.55659
X60.34521 Y38.58503
X63.61032 Y38.58503
X66.13983 Y36.05555
X66.13983 Y33.11242
X64.68645 Y31.65898
X64.28251 Y31.75848
X63.89854 Y31.76978
X63.59854 Y31.72380
X63.23560 Y31.59810
X62.90540 Y31.40194
X62.56867 Y31.08187
X62.35602 Y30.76198
X62.21211 Y30.40590
X62.14284 Y30.03277
X62.13514 Y29.38106
X62.16786 Y29.03394
X62.27502 Y28.66509
X62.45422 Y28.32534
X62.69818 Y28.02861
X62.99684 Y27.78708
X63.23509 Y27.66113
X63.23509 Y19.09787
X62.90540 Y18.90194
X62.62140 Y18.64326
X62.39529 Y18.33277
X62.23634 Y17.98307
X62.14284 Y17.53277
X62.13514 Y16.88106
X62.16786 Y16.53394
X62.25531 Y16.22793
X60.73377 Y14.70634
X57.71648 Y14.70634
X56.79510 Y15.62770
X56.79510 Y23.04635
X56.77023 Y23.24048
X56.68049 Y23.45710
X56.56081 Y23.61201
X54.38520 Y25.78757
X54.46008 Y25.95882
X54.52302 Y26.23464
X54.52919 Y26.51754
X54.47826 Y26.79593
X54.37234 Y27.05831
X54.26531 Y27.23001
X54.07638 Y27.44065
X53.84890 Y27.60895
X53.59216 Y27.72805
X53.31677 Y27.79300
X52.09462 Y27.80428
X51.81403 Y27.76750
X51.54665 Y27.67502
X51.30331 Y27.53060
X51.14977 Y27.39879
X51.02587 Y27.25206
X47.47188 Y27.25206
X47.38277 Y27.49176
X47.27071 Y27.66834
X47.03487 Y27.90418
X46.85831 Y28.01622
X46.58315 Y28.11482
X46.33451 Y28.14535
X46.12583 Y28.13224
X45.88346 Y28.06730
X45.62616 Y27.92884
X45.46500 Y27.79554
X44.44699 Y26.77444
X44.29629 Y26.57441
X44.20330 Y26.38714
X44.13835 Y26.14477
X44.12962 Y25.85262
X44.15578 Y25.68744
X44.23734 Y25.45056
X44.41905 Y25.17076
X44.60226 Y24.99989
X44.77884 Y24.88783
X44.97323 Y24.81089
X45.21915 Y24.76309
X45.55227 Y24.78054
X45.75367 Y24.83677
X45.94094 Y24.92976
X46.17213 Y25.10853
X46.71567 Y25.65206
X50.96161 Y25.65206
X51.05442 Y25.51866
X51.25523 Y25.31930
X51.49209 Y25.16438
X51.67804 Y25.08460
X52.03209 Y25.01147
X52.90262 Y25.00746
X55.19510 Y22.71498
X55.19510 Y15.29635
X55.20473 Y15.17903
X55.24278 Y15.02714
X55.35334 Y14.82036
X56.81943 Y13.34063
X56.97435 Y13.22095
X57.19096 Y13.13121
X57.38509 Y13.10634
X61.06509 Y13.10634
X61.18229 Y13.11592
X61.33431 Y13.15397
X61.47596 Y13.22100
X61.60169 Y13.31427
X63.38388 Y15.09379
X63.66201 Y15.01980
X63.82838 Y14.95462
X64.07692 Y14.92854
X64.28233 Y14.96547
X64.40501 Y15.01863
X64.55000 Y15.04916
X64.68200 Y15.09803
X66.57534 Y13.20474
X66.57534 Y12.31744
X66.54364 Y12.09819
X66.57534 Y11.88397
X66.57534 Y10.42159
X66.54253 Y10.20238
X66.54253 Y7.62609
X65.60768 Y6.69122
X65.11268 Y7.18621
X64.98291 Y7.27293
X64.90788 Y7.29569
X64.75180 Y7.29569
X64.60760 Y7.23597
X64.54700 Y7.18621
X62.02237 Y4.65073
X61.96265 Y4.50654
X61.95498 Y4.42848
X61.98541 Y4.27542
X62.02239 Y4.20626
X62.56712 Y3.65068
X62.36278 Y3.44634
X60.96509 Y3.44634
X60.77096 Y3.42142
X60.62344 Y3.36862
X60.48915 Y3.28810
X59.97650 Y2.78906
X53.78375 Y2.78906
X53.27110 Y3.28810
X53.06432 Y3.39866
X52.91243 Y3.43671
X52.45510 Y3.45523
X52.24728 Y3.42881
X49.44510 Y3.42881
X49.45854 Y3.62046
X49.71073 Y3.70816
X49.97611 Y3.85546
X50.27284 Y4.09943
X50.51436 Y4.39808
X50.69082 Y4.73923
X50.79501 Y5.10895
X50.82264 Y5.49203
X50.77258 Y5.87290
X50.64688 Y6.23584
X50.45071 Y6.56604
X50.19204 Y6.85004
X49.88155 Y7.07615
X49.53184 Y7.23511
X49.08155 Y7.32860
X48.42984 Y7.33630
X48.00345 Y7.28728
X47.63949 Y7.16452
X47.37411 Y7.01722
X47.02164 Y6.71461
X46.79306 Y6.40592
X46.63129 Y6.05756
X46.55521 Y5.76373
X46.52758 Y5.38065
X46.59794 Y4.92145
X46.70335 Y4.63684
X46.89951 Y4.30664
X47.21958 Y3.96991
X47.53946 Y3.75726
X47.84510 Y3.62922
X47.84510 Y3.42881
G04 P0 ( dwell for no time -- G64 should not smooth over this point )
G00 Z5.00000 ( retract )

G00 X58.34770 Y6.33541 ( rapid move to begin. )
F125.00000
G01 Z-0.15000
G04 P0 ( dwell for no time -- G64 should not smooth over this point )
F250.00000
G01 X58.34770 Y6.33541
X58.37820 Y6.12894
X58.45097 Y5.93328
X58.56284 Y5.75700
X58.70889 Y5.60783
X58.84554 Y5.51126
X58.99748 Y5.44123
X59.24097 Y5.38279
X59.40820 Y5.38060
X59.61409 Y5.41542
X59.80815 Y5.49223
X60.04424 Y5.66379
X60.17731 Y5.82464
X60.27403 Y6.00966
X60.33017 Y6.21067
X60.34548 Y6.37727
X60.33017 Y6.54390
X60.27403 Y6.74491
X60.17731 Y6.92993
X60.04424 Y7.09078
X59.84549 Y7.24331
X59.69352 Y7.31334
X59.45006 Y7.37178
X59.28277 Y7.37399
X59.07691 Y7.33914
X58.88285 Y7.26233
X58.64676 Y7.09078
X58.51369 Y6.92993
X58.41696 Y6.74491
X58.36083 Y6.54390
X58.34770 Y6.33541
G04 P0 ( dwell for no time -- G64 should not smooth over this point )
G00 Z5.00000 ( retract )

G00 X61.88325 Y9.87094 ( rapid move to begin. )
F125.00000
G01 Z-0.15000
G04 P0 ( dwell for no time -- G64 should not smooth over this point )
F250.00000
G01 X61.88325 Y9.87094
X61.91376 Y9.66446
X61.98653 Y9.46881
X62.09839 Y9.29253
X62.24444 Y9.14336
X62.38109 Y9.04679
X62.53303 Y8.97676
X62.77652 Y8.91831
X62.94375 Y8.91613
X63.14964 Y8.95095
X63.34370 Y9.02776
X63.57979 Y9.19931
X63.71286 Y9.36017
X63.80959 Y9.54519
X63.86572 Y9.74620
X63.88104 Y9.91280
X63.86572 Y10.07942
X63.80959 Y10.28044
X63.71286 Y10.46545
X63.57979 Y10.62631
X63.38104 Y10.77884
X63.22907 Y10.84887
X62.98561 Y10.90731
X62.81833 Y10.90952
X62.61246 Y10.87467
X62.41840 Y10.79786
X62.18231 Y10.62631
X62.04924 Y10.46545
X61.95252 Y10.28044
X61.89638 Y10.07942
X61.88325 Y9.87094
G04 P0 ( dwell for no time -- G64 should not smooth over this point )
G00 Z5.00000 ( retract )

G00 X60.28925 Y11.11635 ( rapid move to begin. )
F125.00000
G01 Z-0.15000
G04 P0 ( dwell for no time -- G64 should not smooth over this point )
F250.00000
G01 X60.28925 Y11.11635
X55.30968 Y11.11635
X55.17773 Y11.20139
X54.98370 Y11.27820
X54.81966 Y11.31084
X54.61057 Y11.31084
X54.36704 Y11.25240
X54.21514 Y11.18237
X54.07854 Y11.08582
X53.88329 Y10.86898
X53.78657 Y10.68397
X53.73044 Y10.48295
X53.71730 Y10.27447
X53.74781 Y10.06799
X53.78657 Y9.94872
X53.91509 Y9.71747
X53.91509 Y7.47216
X53.94001 Y7.27798
X53.99282 Y7.13046
X54.07334 Y6.99617
X54.14943 Y6.90646
X55.85068 Y5.20527
X55.82611 Y5.03636
X55.83706 Y4.78568
X55.90424 Y4.50118
X56.02914 Y4.23681
X56.20625 Y4.00423
X56.97249 Y3.23798
X57.20508 Y3.06087
X57.42962 Y2.94891
X57.75395 Y2.86880
X58.00465 Y2.85785
X58.25275 Y2.89496
X58.56695 Y3.00857
X58.84348 Y3.19597
X59.04394 Y3.40877
X59.15781 Y3.58411
X59.29232 Y3.93453
X59.32941 Y4.22457
X59.31409 Y4.47496
X59.25125 Y4.71789
X59.10546 Y5.01845
X58.94925 Y5.21482
X58.18308 Y5.98098
X57.98674 Y6.13717
X57.68616 Y6.28299
X57.40160 Y6.35020
X57.15095 Y6.36114
X56.98204 Y6.33663
X55.51509 Y7.80353
X55.51509 Y9.51636
X60.62054 Y9.51636
X60.81472 Y9.54122
X61.03141 Y9.63101
X61.18625 Y9.75065
X62.95681 Y11.52123
X63.05041 Y11.34236
X63.23461 Y11.11491
X64.08312 Y10.26637
X64.27672 Y10.10678
X64.61121 Y9.93635
X64.89572 Y9.86916
X65.18802 Y9.86261
X65.47527 Y9.91697
X65.74489 Y10.02982
X65.95411 Y10.16827
X66.13308 Y10.34414
X66.29957 Y10.58450
X66.41243 Y10.85412
X66.47118 Y11.22491
X66.46023 Y11.43368
X66.39305 Y11.71818
X66.22261 Y12.05267
X66.06305 Y12.24625
X65.21454 Y13.09478
X65.02096 Y13.25435
X64.76460 Y13.39481
X64.48462 Y13.47891
X64.15132 Y13.50294
X63.97941 Y13.47789
X63.78843 Y13.60494
X63.64091 Y13.65775
X63.48599 Y13.68074
X63.18688 Y13.68267
X63.06961 Y13.67302
X62.91772 Y13.63499
X62.77606 Y13.56796
X62.65033 Y13.47469
X60.28925 Y11.11635
G04 P0 ( dwell for no time -- G64 should not smooth over this point )
G00 Z5.00000 ( retract )

G00 X57.51615 Y31.00636 ( rapid move to begin. )
F125.00000
G01 Z-0.15000
G04 P0 ( dwell for no time -- G64 should not smooth over this point )
F250.00000
G01 X57.51615 Y31.00636
X53.67633 Y31.00636
X53.49226 Y31.32309
X53.25607 Y31.58870
X52.90511 Y31.85180
X52.58129 Y31.99833
X52.19506 Y32.08936
X51.71517 Y32.08936
X51.32894 Y31.99833
X51.00514 Y31.85180
X50.68378 Y31.61829
X50.44434 Y31.35566
X50.23839 Y31.01641
X50.10748 Y30.64182
X50.05732 Y30.16452
X50.10748 Y29.77088
X50.20438 Y29.47265
X50.41800 Y29.08957
X50.65417 Y28.82399
X51.04246 Y28.54190
X51.40844 Y28.38853
X51.71517 Y28.32333
X52.19506 Y28.32333
X52.58129 Y28.41436
X52.90509 Y28.56090
X53.25607 Y28.82399
X53.49223 Y29.08957
X53.67697 Y29.40636
X57.13546 Y29.40636
X57.18418 Y28.95467
X57.30693 Y28.59071
X57.45423 Y28.32534
X57.75684 Y27.97286
X57.99685 Y27.78708
X58.23510 Y27.66113
X58.23510 Y19.09787
X57.90541 Y18.90194
X57.62141 Y18.64326
X57.35603 Y18.26198
X57.21212 Y17.90590
X57.15100 Y17.60862
X57.13716 Y16.83587
X57.18418 Y16.45467
X57.30693 Y16.09071
X57.50048 Y15.75889
X57.75684 Y15.47286
X58.06553 Y15.24428
X58.41389 Y15.08251
X58.78770 Y14.99420
X59.17167 Y14.98289
X59.47167 Y15.02887
X59.83461 Y15.15457
X60.22882 Y15.40029
X60.50154 Y15.67080
X60.67492 Y15.91990
X60.83388 Y16.26961
X60.91922 Y16.64405
X60.93507 Y17.37161
X60.90235 Y17.71873
X60.76329 Y18.16196
X60.61599 Y18.42734
X60.37203 Y18.72406
X60.07337 Y18.96559
X59.83510 Y19.09157
X59.83510 Y27.65480
X60.16481 Y27.85074
X60.44881 Y28.10941
X60.67492 Y28.41990
X60.83388 Y28.76961
X60.92737 Y29.21990
X60.93507 Y29.87161
X60.90235 Y30.21873
X60.76329 Y30.66196
X60.61599 Y30.92734
X60.37203 Y31.22406
X60.00469 Y31.50839
X59.65633 Y31.67016
X59.36250 Y31.74623
X58.89855 Y31.76978
X58.59855 Y31.72380
X58.23561 Y31.59810
X57.84140 Y31.35238
X57.62141 Y31.14326
X57.51615 Y31.00636
G04 P0 ( dwell for no time -- G64 should not smooth over this point )
G00 Z5.00000 ( retract )

G00 X64.30509 Y33.50638 ( rapid move to begin. )
F125.00000
G01 Z-0.15000
G04 P0 ( dwell for no time -- G64 should not smooth over this point )
F250.00000
G01 X64.30509 Y33.50638
X64.30509 Y37.00634
X64.27466 Y37.15940
X64.18795 Y37.28917
X64.05818 Y37.37589
X63.90509 Y37.40634
X60.40512 Y37.40634
X60.25206 Y37.37589
X60.12229 Y37.28917
X60.03558 Y37.15940
X60.00512 Y37.00634
X60.00512 Y33.50638
X60.03558 Y33.35329
X60.12229 Y33.22352
X60.25206 Y33.13681
X60.40512 Y33.10638
X63.90509 Y33.10638
X64.05818 Y33.13681
X64.18795 Y33.22352
X64.27466 Y33.35329
X64.30509 Y33.50638
G04 P0 ( dwell for no time -- G64 should not smooth over this point )
G00 Z5.00000 ( retract )

G00 X64.30509 Y42.20636 ( rapid move to begin. )
F125.00000
G01 Z-0.15000
G04 P0 ( dwell for no time -- G64 should not smooth over this point )
F250.00000
G01 X64.30509 Y42.20636
X64.30509 Y45.70633
X64.27466 Y45.85939
X64.18795 Y45.98916
X64.05818 Y46.07587
X63.90509 Y46.10633
X60.40512 Y46.10633
X60.25206 Y46.07587
X60.12229 Y45.98916
X60.03558 Y45.85939
X60.00512 Y45.70633
X60.00512 Y42.20636
X60.03558 Y42.05327
X60.12229 Y41.92351
X60.25206 Y41.83679
X60.40512 Y41.80636
X63.90509 Y41.80636
X64.05818 Y41.83679
X64.18795 Y41.92351
X64.27466 Y42.05327
X64.30509 Y42.20636
G04 P0 ( dwell for no time -- G64 should not smooth over this point )
G00 Z5.00000 ( retract )

G00 X50.54510 Y35.90767 ( rapid move to begin. )
F125.00000
G01 Z-0.15000
G04 P0 ( dwell for no time -- G64 should not smooth over this point )
F250.00000
G01 X50.54510 Y35.90767
X44.57686 Y29.93938
X44.32979 Y29.92830
X44.12728 Y29.87631
X43.83013 Y29.72490
X43.66896 Y29.59160
X42.65093 Y28.57047
X42.50023 Y28.37045
X42.40724 Y28.18317
X42.34229 Y27.94081
X42.33356 Y27.64865
X42.38136 Y27.40273
X42.45832 Y27.20832
X42.57036 Y27.03176
X42.74123 Y26.84855
X43.02103 Y26.66684
X43.25791 Y26.58528
X43.50655 Y26.55475
X43.71524 Y26.56786
X43.95761 Y26.63281
X44.14488 Y26.72580
X44.34491 Y26.87649
X45.36604 Y27.89453
X45.49934 Y28.05569
X45.65075 Y28.35284
X45.70274 Y28.55536
X45.71496 Y28.81474
X51.98690 Y35.10035
X52.09747 Y35.30714
X52.13552 Y35.45915
X52.14509 Y35.57635
X52.14509 Y38.37624
X54.69845 Y38.37558
X54.89274 Y38.40045
X55.02584 Y38.44652
X55.93361 Y38.44642
X56.08700 Y38.46204
X56.31331 Y38.52448
X56.52253 Y38.63121
X56.70592 Y38.77784
X56.85608 Y38.95846
X56.99489 Y39.24142
X57.04580 Y39.47075
X57.04950 Y39.70550
X57.02616 Y39.85790
X56.95232 Y40.08084
X56.83513 Y40.28434
X56.67935 Y40.46011
X56.49144 Y40.60088
X56.27894 Y40.70098
X56.05073 Y40.75625
X54.37659 Y40.76628
X54.22322 Y40.75066
X53.99691 Y40.68823
X53.72127 Y40.53527
X53.54852 Y40.37619
X53.45413 Y40.25424
X53.31695 Y39.97568
X51.30585 Y39.97439
X51.07593 Y39.92867
X50.86915 Y39.81810
X50.75307 Y39.71289
X50.62282 Y39.51800
X50.57002 Y39.37047
X50.54705 Y39.21559
X50.54510 Y35.90767
G04 P0 ( dwell for no time -- G64 should not smooth over this point )
G00 Z5.00000 ( retract )

G00 X47.08409 Y33.77038 ( rapid move to begin. )
F125.00000
G01 Z-0.15000
G04 P0 ( dwell for no time -- G64 should not smooth over this point )
F250.00000
G01 X47.08409 Y33.77038
X47.19314 Y33.80252
X47.55206 Y33.97186
X47.83830 Y34.18255
X48.12689 Y34.51285
X48.31770 Y34.86081
X48.43197 Y35.24082
X48.46695 Y35.59449
X48.41460 Y36.02997
X48.28368 Y36.40457
X48.10411 Y36.71125
X47.83832 Y37.00645
X47.51696 Y37.23995
X47.11363 Y37.41231
X46.76555 Y37.48407
X46.41018 Y37.48628
X46.02029 Y37.41231
X45.61699 Y37.23995
X45.26601 Y36.97686
X45.00703 Y36.67614
X44.81623 Y36.32819
X44.71933 Y36.02997
X44.66698 Y35.59449
X44.71933 Y35.15903
X44.85024 Y34.78443
X45.02984 Y34.47772
X45.26462 Y34.21369
X42.78613 Y31.73513
X42.53373 Y31.72434
X42.33122 Y31.67234
X42.03407 Y31.52094
X41.87290 Y31.38764
X40.85490 Y30.36653
X40.74966 Y30.23653
X40.62825 Y30.01751
X40.54189 Y29.69521
X40.53752 Y29.44471
X40.56369 Y29.27954
X40.66229 Y29.00438
X40.77433 Y28.82782
X40.94519 Y28.64461
X41.15045 Y28.50088
X41.46188 Y28.38134
X41.71052 Y28.35081
X41.91921 Y28.36392
X42.16157 Y28.42887
X42.41888 Y28.56732
X42.58004 Y28.70062
X43.56998 Y29.69056
X43.70328 Y29.85172
X43.85469 Y30.14888
X43.90668 Y30.35139
X43.91750 Y30.60377
X47.08409 Y33.77038
G04 P0 ( dwell for no time -- G64 should not smooth over this point )
G00 Z5.00000 ( retract )

G00 X41.91532 Y32.33518 ( rapid move to begin. )
F125.00000
G01 Z-0.15000
G04 P0 ( dwell for no time -- G64 should not smooth over this point )
F250.00000
G01 X41.91532 Y32.33518
X40.86478 Y33.37486
X40.72058 Y33.43460
X40.56450 Y33.43460
X40.42030 Y33.37488
X40.35970 Y33.32512
X38.94548 Y31.91090
X38.85876 Y31.78113
X38.83600 Y31.70610
X38.83600 Y31.55002
X38.85876 Y31.47499
X38.94548 Y31.34522
X39.93544 Y30.35528
X40.06521 Y30.26856
X40.14027 Y30.24580
X40.29632 Y30.24580
X40.37136 Y30.26856
X40.50112 Y30.35528
X41.96505 Y31.83010
X42.02479 Y31.97430
X42.02479 Y32.13036
X42.00204 Y32.20541
X41.91532 Y32.33518
G04 P0 ( dwell for no time -- G64 should not smooth over this point )
G00 Z5.00000 ( retract )

G00 X33.83469 Y30.15180 ( rapid move to begin. )
F125.00000
G01 Z-0.15000
G04 P0 ( dwell for no time -- G64 should not smooth over this point )
F250.00000
G01 X33.83469 Y30.15180
X34.22250 Y30.53966
X34.32588 Y30.50321
X34.63261 Y30.43801
X35.07114 Y30.43145
X35.41922 Y30.50321
X35.78521 Y30.65657
X36.17350 Y30.93867
X36.40967 Y31.20425
X36.58927 Y31.51095
X36.72018 Y31.88555
X36.77035 Y32.27920
X36.72018 Y32.75649
X36.58927 Y33.13109
X36.40969 Y33.43777
X36.14391 Y33.73297
X35.82255 Y33.96647
X35.41922 Y34.13884
X35.07114 Y34.21059
X34.71577 Y34.21280
X34.24637 Y34.11301
X33.88745 Y33.94366
X33.60121 Y33.73297
X33.36177 Y33.47033
X33.12182 Y33.05471
X33.00754 Y32.67470
X32.97256 Y32.32101
X33.00754 Y31.96734
X33.09377 Y31.67364
X32.71552 Y31.29533
X32.56182 Y31.42193
X32.34277 Y31.54336
X32.06215 Y31.62535
X31.85344 Y31.63846
X31.60480 Y31.60793
X31.32967 Y31.50933
X31.08811 Y31.34466
X30.91725 Y31.16145
X30.78816 Y30.94662
X30.70661 Y30.70974
X30.68044 Y30.54456
X30.68918 Y30.25238
X30.75413 Y30.01002
X30.84712 Y29.82277
X30.99787 Y29.62272
X32.01587 Y28.60164
X32.17701 Y28.46834
X32.39616 Y28.34690
X32.67676 Y28.26493
X32.96886 Y28.25620
X33.17503 Y28.29107
X33.37099 Y28.36397
X33.65077 Y28.54568
X33.76901 Y28.66397
X33.91267 Y28.86918
X34.03223 Y29.18066
X34.06273 Y29.42925
X34.05400 Y29.59625
X33.96761 Y29.91853
X33.83469 Y30.15180
G04 P0 ( dwell for no time -- G64 should not smooth over this point )
G00 Z5.00000 ( retract )

G00 X30.82733 Y35.24450 ( rapid move to begin. )
F125.00000
G01 Z-0.15000
G04 P0 ( dwell for no time -- G64 should not smooth over this point )
F250.00000
G01 X30.82733 Y35.24450
X30.86330 Y34.98600
X30.93322 Y34.77788
X31.04110 Y34.58672
X31.20912 Y34.38702
X31.45011 Y34.20381
X31.68890 Y34.09751
X31.90315 Y34.04973
X32.16396 Y34.04102
X32.50051 Y34.11252
X32.73523 Y34.22662
X32.94115 Y34.38702
X33.10917 Y34.58672
X33.21704 Y34.77790
X33.29779 Y35.02644
X33.32291 Y35.32814
X33.29781 Y35.54620
X33.21704 Y35.79476
X33.06004 Y36.05359
X32.91155 Y36.21524
X32.66284 Y36.38785
X32.46142 Y36.47513
X32.24712 Y36.52293
X31.98628 Y36.53167
X31.64978 Y36.46014
X31.45011 Y36.36883
X31.20912 Y36.18565
X31.04110 Y35.98595
X30.93322 Y35.79476
X30.84592 Y35.50490
X30.82733 Y35.24450
G04 P0 ( dwell for no time -- G64 should not smooth over this point )
G00 Z5.00000 ( retract )

G00 X27.81896 Y35.62636 ( rapid move to begin. )
F125.00000
G01 Z-0.15000
G04 P0 ( dwell for no time -- G64 should not smooth over this point )
F250.00000
G01 X27.81896 Y35.62636
X14.34509 Y35.62636
X14.15096 Y35.60145
X13.93427 Y35.51166
X13.77944 Y35.39202
X10.53944 Y32.15200
X10.46334 Y32.06229
X10.38282 Y31.92800
X10.33001 Y31.78047
X10.30510 Y31.58634
X10.30510 Y20.60635
X10.33001 Y20.41217
X10.41980 Y20.19548
X10.53944 Y20.04064
X13.96511 Y16.61500
X13.96511 Y11.70634
X13.26511 Y11.70634
X13.11205 Y11.67589
X12.98228 Y11.58917
X12.93255 Y11.52857
X12.89557 Y11.45941
X12.86511 Y11.30635
X12.86511 Y8.30635
X12.89557 Y8.15327
X12.93255 Y8.08410
X12.98228 Y8.02350
X13.11205 Y7.93678
X13.26511 Y7.90635
X16.26511 Y7.90635
X16.41819 Y7.93678
X16.54796 Y8.02350
X16.63468 Y8.15327
X16.66510 Y8.30635
X16.66510 Y11.30635
X16.63468 Y11.45941
X16.59769 Y11.52857
X16.54796 Y11.58917
X16.41819 Y11.67589
X16.26511 Y11.70634
X15.56511 Y11.70634
X15.56511 Y16.94636
X15.54024 Y17.14050
X15.48746 Y17.28797
X15.40694 Y17.42231
X15.33082 Y17.51202
X11.90509 Y20.93772
X11.90509 Y31.25492
X14.67651 Y34.02637
X28.15025 Y34.02637
X28.26744 Y34.03594
X28.41946 Y34.07399
X28.62624 Y34.18456
X31.97716 Y37.52458
X32.07043 Y37.65031
X32.13746 Y37.79197
X32.17551 Y37.94399
X32.18509 Y38.15493
X40.47080 Y46.44064
X40.59043 Y46.59548
X40.68022 Y46.81217
X40.70509 Y47.00635
X40.70509 Y50.53172
X40.85507 Y50.60088
X41.17643 Y50.83438
X41.44222 Y51.12956
X41.65583 Y51.51264
X41.75274 Y51.81086
X41.80290 Y52.20451
X41.77011 Y52.60001
X41.65583 Y52.98002
X41.44225 Y53.36308
X41.14390 Y53.68464
X40.81776 Y53.91078
X40.45177 Y54.06415
X40.14504 Y54.12935
X39.74832 Y54.13811
X39.35843 Y54.06415
X38.95513 Y53.89178
X38.60415 Y53.62869
X38.34517 Y53.32798
X38.15437 Y52.98002
X38.05747 Y52.68180
X38.00730 Y52.20451
X38.05747 Y51.81086
X38.18838 Y51.43626
X38.36798 Y51.12956
X38.63377 Y50.83436
X38.95513 Y50.60088
X39.10509 Y50.53174
X39.10509 Y47.33767
X30.81943 Y39.05201
X30.69980 Y38.89717
X30.63277 Y38.75552
X30.59474 Y38.60362
X30.58509 Y38.39252
X27.81896 Y35.62636
G04 P0 ( dwell for no time -- G64 should not smooth over this point )
G00 Z5.00000 ( retract )

G00 X30.29510 Y21.13635 ( rapid move to begin. )
F125.00000
G01 Z-0.15000
G04 P0 ( dwell for no time -- G64 should not smooth over this point )
F250.00000
G01 X30.29510 Y21.13635
X30.56569 Y21.13825
X30.72073 Y21.16121
X30.86825 Y21.21402
X31.06315 Y21.34427
X34.48259 Y24.76103
X34.73499 Y24.77182
X34.93751 Y24.82382
X35.23466 Y24.97523
X35.39583 Y25.10853
X36.38577 Y26.09847
X36.51907 Y26.25963
X36.65752 Y26.51693
X36.72247 Y26.75930
X36.73557 Y26.96799
X36.70504 Y27.21663
X36.60647 Y27.49176
X36.49440 Y27.66834
X36.32354 Y27.85155
X36.21510 Y27.93240
X36.21510 Y28.04495
X38.27080 Y30.10064
X38.39044 Y30.25548
X38.48022 Y30.47217
X38.50509 Y30.66635
X38.50509 Y31.75977
X38.53631 Y31.97458
X38.53631 Y34.85342
X39.61065 Y35.92781
X39.71403 Y35.89136
X40.02076 Y35.82616
X40.50064 Y35.82616
X40.80737 Y35.89136
X41.17336 Y36.04473
X41.56165 Y36.32682
X41.82063 Y36.62753
X42.01143 Y36.97548
X42.10834 Y37.27370
X42.15850 Y37.75100
X42.12571 Y38.06286
X42.03950 Y38.35656
X44.30521 Y40.62231
X52.18444 Y40.62422
X52.41451 Y40.66994
X52.62129 Y40.78051
X53.17672 Y41.32231
X53.55043 Y41.32231
X53.70549 Y41.17108
X53.90915 Y41.03928
X54.05792 Y40.97545
X54.29366 Y40.91866
X55.85398 Y40.90636
X56.05662 Y40.92478
X56.36472 Y41.02147
X56.57264 Y41.14624
X56.69548 Y41.25168
X56.89312 Y41.50702
X56.99253 Y41.72828
X57.03310 Y41.88497
X57.05354 Y42.12658
X57.02494 Y42.36742
X56.91280 Y42.67024
X56.77762 Y42.87161
X56.60472 Y43.04161
X56.40107 Y43.17341
X56.25230 Y43.23724
X56.01656 Y43.29404
X54.41464 Y43.30430
X54.17430 Y43.27161
X53.94550 Y43.19122
X53.73757 Y43.06645
X53.57611 Y42.92231
X52.80605 Y42.92035
X52.65116 Y42.89739
X52.50364 Y42.84459
X52.30875 Y42.71433
X51.81398 Y42.22231
X43.97379 Y42.22231
X43.85652 Y42.21266
X43.70462 Y42.17463
X43.56297 Y42.10760
X43.40813 Y41.98797
X40.91075 Y39.49054
X40.80737 Y39.52699
X40.45929 Y39.59874
X40.02076 Y39.59219
X39.71403 Y39.52699
X39.34804 Y39.37362
X38.98937 Y39.12112
X38.70077 Y38.79082
X38.50997 Y38.44287
X38.41307 Y38.14465
X38.36290 Y37.66735
X38.39569 Y37.35549
X38.48190 Y37.06179
X37.40499 Y35.98483
X36.08800 Y35.98483
X35.11069 Y36.96210
X35.11894 Y37.12418
X35.09385 Y37.34223
X34.99405 Y37.62811
X34.85608 Y37.84962
X34.73718 Y37.98168
X34.45887 Y38.18389
X34.25745 Y38.27116
X34.04315 Y38.31897
X33.69918 Y38.31897
X33.48493 Y38.27119
X33.28346 Y38.18389
X33.06728 Y38.03761
X32.88626 Y37.84962
X32.72926 Y37.59080
X32.65933 Y37.38270
X32.62118 Y37.08237
X32.65933 Y36.78204
X32.72926 Y36.57391
X32.83713 Y36.38275
X33.00515 Y36.18305
X33.24615 Y35.99984
X33.48493 Y35.89355
X33.69918 Y35.84577
X33.97178 Y35.83827
X35.19098 Y34.61913
X35.28069 Y34.54300
X35.41503 Y34.46248
X35.56250 Y34.40970
X35.71752 Y34.38674
X36.93631 Y34.38484
X36.93631 Y32.15797
X36.90509 Y31.94336
X36.90509 Y30.99767
X34.77335 Y28.85231
X34.66278 Y28.64553
X34.62476 Y28.49364
X34.61511 Y27.72196
X33.69875 Y26.80560
X33.56545 Y26.64444
X33.41404 Y26.34729
X33.36205 Y26.14477
X33.35123 Y25.89240
X30.19523 Y22.73635
X27.54509 Y22.73635
X27.35096 Y22.71143
X27.13427 Y22.62164
X26.97943 Y22.50200
X23.64335 Y19.15230
X23.53278 Y18.94552
X23.49476 Y18.79363
X23.48511 Y18.67636
X23.49509 Y15.47169
X23.38866 Y15.35922
X23.26128 Y15.16189
X23.17624 Y14.94296
X23.14520 Y14.79196
X23.13311 Y13.15935
X23.16707 Y12.88526
X23.24513 Y12.66375
X23.31996 Y12.52892
X23.46659 Y12.34554
X23.64721 Y12.19537
X23.93016 Y12.05656
X24.15950 Y12.00566
X24.39425 Y12.00195
X24.54665 Y12.02529
X24.76958 Y12.09913
X24.97309 Y12.21633
X25.14886 Y12.37210
X25.32892 Y12.63080
X25.41396 Y12.84973
X25.45317 Y13.08026
X25.45709 Y14.63334
X25.43941 Y14.82823
X25.34507 Y15.12894
X25.22402 Y15.33019
X25.09509 Y15.47413
X25.08510 Y18.34494
X27.87651 Y21.13635
X30.29510 Y21.13635
G04 P0 ( dwell for no time -- G64 should not smooth over this point )
G00 Z5.00000 ( retract )

G00 X30.52654 Y21.13635 ( rapid move to begin. )
F125.00000
G01 Z-0.15000
G04 P0 ( dwell for no time -- G64 should not smooth over this point )
F250.00000
G01 X30.52654 Y21.13635
X30.25586 Y21.13439
X30.10097 Y21.11143
X29.95344 Y21.05862
X29.75855 Y20.92837
X26.22945 Y17.40201
X26.15335 Y17.31230
X26.07283 Y17.17801
X26.02003 Y17.03049
X25.99511 Y16.83636
X25.99511 Y15.47169
X25.88868 Y15.35922
X25.76130 Y15.16189
X25.67626 Y14.94296
X25.64522 Y14.79196
X25.63519 Y13.11782
X25.65081 Y12.96446
X25.71324 Y12.73814
X25.86620 Y12.46250
X26.02528 Y12.28976
X26.14723 Y12.19537
X26.35432 Y12.08468
X26.57946 Y12.01790
X26.81347 Y11.99786
X27.04667 Y12.02529
X27.26960 Y12.09913
X27.47311 Y12.21633
X27.64888 Y12.37210
X27.82894 Y12.63080
X27.91398 Y12.84973
X27.95319 Y13.08026
X27.95505 Y14.67487
X27.92315 Y14.90743
X27.84509 Y15.12894
X27.72404 Y15.33019
X27.59511 Y15.47413
X27.59511 Y16.50494
X30.62652 Y19.53635
X32.55776 Y19.53826
X32.78783 Y19.58398
X32.92949 Y19.65101
X33.05522 Y19.74428
X36.27670 Y22.96307
X36.53105 Y22.97577
X36.73357 Y23.02776
X37.03072 Y23.17917
X37.19189 Y23.31247
X38.20989 Y24.33357
X38.31512 Y24.46357
X38.43654 Y24.68259
X38.51853 Y24.96324
X38.53163 Y25.17193
X38.50110 Y25.42057
X38.38157 Y25.73200
X38.23783 Y25.93725
X38.05462 Y26.10812
X37.87807 Y26.22016
X37.60291 Y26.31876
X37.35427 Y26.34929
X37.14558 Y26.33619
X36.90321 Y26.27124
X36.71594 Y26.17825
X36.48475 Y25.99948
X35.49481 Y25.00954
X35.36151 Y24.84838
X35.21010 Y24.55123
X35.15811 Y24.34871
X35.14729 Y24.09636
X32.18732 Y21.13635
X30.52654 Y21.13635
G04 P0 ( dwell for no time -- G64 should not smooth over this point )
G00 Z5.00000 ( retract )

G00 X49.85379 Y45.13635 ( rapid move to begin. )
F125.00000
G01 Z-0.15000
G04 P0 ( dwell for no time -- G64 should not smooth over this point )
F250.00000
G01 X49.85379 Y45.13635
X41.11509 Y45.13635
X40.99782 Y45.12670
X40.84593 Y45.08868
X40.70427 Y45.02164
X40.54944 Y44.90201
X35.98544 Y40.32798
X35.88945 Y40.41309
X35.82029 Y40.45008
X35.66723 Y40.48051
X35.51414 Y40.45008
X35.38437 Y40.36336
X34.13253 Y39.10068
X34.07282 Y38.95648
X34.07282 Y38.80040
X34.09558 Y38.72537
X34.18229 Y38.59560
X35.44500 Y37.34376
X35.51414 Y37.30680
X35.66723 Y37.27637
X35.82029 Y37.30680
X35.88945 Y37.34378
X37.20187 Y38.65620
X37.26161 Y38.80040
X37.26161 Y38.95645
X37.20189 Y39.10065
X37.11680 Y39.19661
X41.44651 Y43.53635
X50.18510 Y43.53635
X50.37929 Y43.56122
X50.59597 Y43.65101
X50.75081 Y43.77064
X58.42651 Y51.44635
X58.49509 Y51.44635
X58.49509 Y50.74635
X58.52555 Y50.59326
X58.61226 Y50.46349
X58.74203 Y50.37678
X58.81706 Y50.35402
X61.89509 Y50.34635
X62.04817 Y50.37678
X62.17794 Y50.46349
X62.26466 Y50.59326
X62.29509 Y50.74635
X62.29509 Y53.74634
X62.26466 Y53.89940
X62.22768 Y53.96857
X62.17794 Y54.02917
X62.04817 Y54.11589
X61.89509 Y54.14634
X58.89509 Y54.14634
X58.74203 Y54.11589
X58.67287 Y54.07890
X58.56253 Y53.96857
X58.50279 Y53.82437
X58.49509 Y53.04634
X58.09510 Y53.04634
X57.90096 Y53.02143
X57.68428 Y52.93164
X57.52944 Y52.81200
X49.85379 Y45.13635
G04 P0 ( dwell for no time -- G64 should not smooth over this point )
G00 Z5.00000 ( retract )

G00 X53.45129 Y57.51339 ( rapid move to begin. )
F125.00000
G01 Z-0.15000
G04 P0 ( dwell for no time -- G64 should not smooth over this point )
F250.00000
G01 X53.45129 Y57.51339
X53.54588 Y57.78738
X53.58370 Y58.07011
X53.56709 Y58.32319
X53.45131 Y59.03663
X52.34357 Y62.35981
X52.25200 Y62.54602
X52.14685 Y62.67442
X52.01741 Y62.77835
X51.86938 Y62.85326
X51.62607 Y62.90464
X51.46039 Y62.89598
X51.30001 Y62.85328
X51.15185 Y62.77835
X51.02236 Y62.67437
X50.91723 Y62.54594
X50.82569 Y62.35971
X50.28719 Y60.74330
X50.26110 Y60.98021
X50.20123 Y61.13617
X50.11025 Y61.27627
X49.99214 Y61.39436
X49.85208 Y61.48532
X49.69613 Y61.54516
X49.53128 Y61.57129
X49.33700 Y61.57350
X49.33700 Y62.10683
X49.30870 Y62.31353
X49.26788 Y62.43215
X49.20705 Y62.54190
X49.07233 Y62.70131
X48.89974 Y62.81864
X48.78424 Y62.86766
X48.66197 Y62.89588
X48.49519 Y62.90462
X48.33029 Y62.87851
X48.17434 Y62.81864
X47.97210 Y62.67170
X47.82519 Y62.46949
X47.74797 Y62.23190
X47.73700 Y61.53807
X47.60291 Y61.48532
X47.46286 Y61.39436
X47.29560 Y61.20863
X47.19390 Y60.98021
X47.16779 Y60.73167
X47.21976 Y60.48715
X47.34470 Y60.27076
X47.53050 Y60.10345
X47.73700 Y60.00891
X47.73700 Y58.67826
X47.75249 Y58.52469
X47.80873 Y58.34864
X48.01196 Y57.93953
X48.09839 Y57.80414
X48.18549 Y57.70976
X48.36974 Y57.58174
X48.77891 Y57.37849
X48.95493 Y57.32228
X49.10842 Y57.30684
X49.53118 Y57.30902
X49.69613 Y57.33513
X49.87017 Y57.40541
X49.95940 Y57.36317
X50.12038 Y57.31872
X50.28708 Y57.30872
X50.41175 Y57.32304
X50.57123 Y57.37356
X50.68142 Y57.43358
X50.84177 Y57.56701
X50.91805 Y57.66668
X51.01025 Y57.85385
X51.20883 Y58.44968
X51.96041 Y58.44968
X52.15906 Y57.85380
X52.22828 Y57.70148
X52.35736 Y57.53767
X52.48807 Y57.43346
X52.59828 Y57.37346
X52.71720 Y57.33356
X52.96587 Y57.30935
X53.09036 Y57.32558
X53.21009 Y57.36323
X53.35815 Y57.44011
X53.45129 Y57.51339
G04 P0 ( dwell for no time -- G64 should not smooth over this point )
G00 Z5.00000 ( retract )

G00 X53.45129 Y59.03678 ( rapid move to begin. )
F125.00000
G01 Z-0.15000
G04 P0 ( dwell for no time -- G64 should not smooth over this point )
F250.00000
G01 X53.45129 Y59.03678
X53.58337 Y58.15372
X53.56333 Y57.87102
X53.52851 Y57.72170
X53.45129 Y57.51339
X53.45350 Y56.73158
X53.50547 Y56.48720
X53.58129 Y56.33836
X53.68639 Y56.20857
X53.88863 Y56.06163
X54.04458 Y56.00176
X54.20948 Y55.97567
X54.37626 Y55.98439
X54.49853 Y56.01261
X54.61403 Y56.06163
X54.78662 Y56.17892
X54.92134 Y56.33836
X54.98215 Y56.44809
X55.02299 Y56.56673
X55.04910 Y56.73168
X55.05129 Y57.30684
X55.48649 Y57.31276
X55.60780 Y57.33648
X55.75192 Y57.39127
X56.13287 Y57.58174
X56.26812 Y57.66810
X56.55304 Y57.94562
X56.66566 Y58.10188
X56.88438 Y58.53912
X56.95014 Y58.77638
X56.95606 Y60.01158
X56.94061 Y60.16507
X56.90767 Y60.28387
X56.66561 Y60.77846
X56.53129 Y60.95819
X56.34079 Y61.14869
X56.21600 Y61.24978
X55.72375 Y61.50177
X55.54770 Y61.55801
X55.39414 Y61.57350
X54.63224 Y61.57350
X54.44037 Y61.54897
X54.20948 Y61.57129
X54.00415 Y61.53434
X53.85129 Y61.46632
X53.68639 Y61.33838
X53.53948 Y61.13617
X53.47964 Y60.98021
X53.45129 Y60.77351
X53.45129 Y59.03678
G04 P0 ( dwell for no time -- G64 should not smooth over this point )
G00 Z5.00000 ( retract )

G00 X55.20534 Y58.90683 ( rapid move to begin. )
F125.00000
G01 Z-0.15000
G04 P0 ( dwell for no time -- G64 should not smooth over this point )
F250.00000
G01 X55.20534 Y58.90683
X55.05129 Y58.90683
X55.05129 Y59.97351
X55.20526 Y59.97351
X55.30122 Y59.92553
X55.35606 Y59.82276
X55.35606 Y59.05751
X55.30818 Y58.96170
X55.20534 Y58.90683
G04 P0 ( dwell for no time -- G64 should not smooth over this point )
G00 Z5.00000 ( retract )

G00 X58.67033 Y59.40206 ( rapid move to begin. )
F125.00000
G01 Z-0.15000
G04 P0 ( dwell for no time -- G64 should not smooth over this point )
F250.00000
G01 X58.67033 Y59.40206
X59.24549 Y59.40424
X59.41043 Y59.43035
X59.52908 Y59.47120
X59.63881 Y59.53200
X59.79824 Y59.66673
X59.87376 Y59.76698
X59.94955 Y59.91570
X60.00149 Y60.16022
X59.97541 Y60.40876
X59.89654 Y60.60203
X59.76860 Y60.76695
X59.56639 Y60.91387
X59.41043 Y60.97371
X59.20368 Y61.00205
X58.67033 Y61.00205
X58.67033 Y61.30683
X59.90010 Y61.31775
X60.13781 Y61.39497
X60.27787 Y61.48592
X60.36967 Y61.57150
X60.48696 Y61.74409
X60.54683 Y61.90007
X60.57292 Y62.06499
X60.54683 Y62.31353
X60.46796 Y62.50680
X60.39598 Y62.60960
X60.27787 Y62.72768
X60.10050 Y62.83764
X59.90020 Y62.89585
X59.77510 Y62.90683
X57.75306 Y62.89717
X57.60117 Y62.85915
X57.39439 Y62.74858
X57.27831 Y62.64338
X57.14806 Y62.44848
X57.09525 Y62.30096
X57.07033 Y62.10683
X57.07033 Y58.10684
X57.09525 Y57.91265
X57.18504 Y57.69597
X57.27831 Y57.57024
X57.45951 Y57.42149
X57.60117 Y57.35446
X57.83121 Y57.30874
X59.81691 Y57.30902
X59.98186 Y57.33513
X60.10050 Y57.37598
X60.27787 Y57.48593
X60.36967 Y57.57151
X60.48696 Y57.74410
X60.53598 Y57.85959
X60.56420 Y57.98187
X60.57292 Y58.14864
X60.54683 Y58.31354
X60.46796 Y58.50681
X60.39598 Y58.60960
X60.21023 Y58.77684
X60.10050 Y58.83764
X59.90020 Y58.89586
X58.67033 Y58.90683
X58.67033 Y59.40206
G04 P0 ( dwell for no time -- G64 should not smooth over this point )
G00 Z5.00000 ( retract )

G00 X49.66793 Y58.88448 ( rapid move to begin. )
F125.00000
G01 Z-0.15000
G04 P0 ( dwell for no time -- G64 should not smooth over this point )
F250.00000
G01 X49.66793 Y58.88448
X49.53128 Y58.90462
X49.33700 Y58.90683
X49.33700 Y59.97351
X49.61437 Y59.98443
X49.81477 Y60.04265
X49.99214 Y60.15260
X50.14622 Y60.32022
X49.66793 Y58.88448
G04 P0 ( dwell for no time -- G64 should not smooth over this point )
G00 Z5.00000 ( retract )

G00 X41.07034 Y61.11110 ( rapid move to begin. )
F125.00000
G01 Z-0.15000
G04 P0 ( dwell for no time -- G64 should not smooth over this point )
F250.00000
G01 X41.07034 Y61.11110
X41.10780 Y60.79334
X41.07034 Y60.42159
X41.07227 Y58.06757
X41.11801 Y57.83762
X41.18505 Y57.69597
X41.27831 Y57.57024
X41.39439 Y57.46503
X41.52868 Y57.38451
X41.67621 Y57.33170
X41.87034 Y57.30684
X43.81692 Y57.30902
X43.98186 Y57.33513
X44.10051 Y57.37598
X44.21024 Y57.43678
X44.34003 Y57.54189
X44.44519 Y57.67176
X44.52098 Y57.82048
X44.56421 Y57.98187
X44.57292 Y58.14864
X44.53599 Y58.35398
X44.46797 Y58.50681
X44.39599 Y58.60960
X44.27788 Y58.72769
X44.10051 Y58.83764
X43.90020 Y58.89586
X42.67034 Y58.90683
X42.67034 Y59.40206
X43.24547 Y59.40424
X43.41042 Y59.43035
X43.56637 Y59.49020
X43.76858 Y59.63711
X43.87374 Y59.76698
X43.96454 Y59.95481
X44.00147 Y60.16022
X43.97539 Y60.40876
X43.91552 Y60.56472
X43.82454 Y60.70482
X43.70643 Y60.82291
X43.52906 Y60.93287
X43.32875 Y60.99108
X42.67034 Y61.00205
X42.67034 Y61.30683
X43.90010 Y61.31775
X44.10051 Y61.37597
X44.27788 Y61.48592
X44.36967 Y61.57150
X44.48697 Y61.74409
X44.54684 Y61.90007
X44.57292 Y62.06499
X44.56421 Y62.23174
X44.52098 Y62.39309
X44.46797 Y62.50680
X44.34003 Y62.67172
X44.21024 Y62.77683
X44.10051 Y62.83764
X43.98186 Y62.87848
X43.81702 Y62.90462
X41.87034 Y62.90683
X41.67621 Y62.88191
X41.52868 Y62.82910
X41.39439 Y62.74858
X41.27831 Y62.64338
X41.14806 Y62.44848
X41.09526 Y62.30096
X41.07034 Y62.10683
X41.07034 Y61.11110
G04 P0 ( dwell for no time -- G64 should not smooth over this point )
G00 Z5.00000 ( retract )

G00 X37.90842 Y59.88839 ( rapid move to begin. )
F125.00000
G01 Z-0.15000
G04 P0 ( dwell for no time -- G64 should not smooth over this point )
F250.00000
G01 X37.90842 Y59.88839
X37.83710 Y60.21534
X37.63352 Y60.75026
X37.48371 Y60.95814
X37.29323 Y61.14864
X37.16847 Y61.24973
X36.70431 Y61.48902
X36.50009 Y61.55801
X36.34652 Y61.57350
X35.77510 Y61.57350
X35.56149 Y61.54381
X35.41737 Y61.48902
X35.03642 Y61.29855
X34.82844 Y61.14864
X34.63797 Y60.95814
X34.53698 Y60.83345
X34.29768 Y60.36932
X34.24290 Y60.22520
X34.21442 Y60.04249
X34.21516 Y58.82809
X34.40276 Y58.54532
X34.51010 Y58.34585
X34.64515 Y57.91494
X34.82849 Y57.73160
X34.95323 Y57.63056
X35.43385 Y57.38347
X35.65008 Y57.31776
X36.34591 Y57.30684
X36.56019 Y57.33648
X36.70431 Y57.39127
X37.08526 Y57.58174
X37.22064 Y57.66818
X37.50542 Y57.94567
X37.63352 Y58.13000
X37.83674 Y58.53912
X37.89298 Y58.71517
X37.90842 Y58.86873
X37.90842 Y59.88839
G04 P0 ( dwell for no time -- G64 should not smooth over this point )
G00 Z5.00000 ( retract )

G00 X37.64497 Y60.72735 ( rapid move to begin. )
F125.00000
G01 Z-0.15000
G04 P0 ( dwell for no time -- G64 should not smooth over this point )
F250.00000
G01 X37.64497 Y60.72735
X37.83710 Y60.21534
X37.90842 Y59.88834
X38.64078 Y57.83775
X38.73425 Y57.65644
X38.90118 Y57.47808
X39.03915 Y57.39106
X39.19206 Y57.33384
X39.35340 Y57.30892
X39.51624 Y57.31725
X39.67423 Y57.35855
X39.82043 Y57.43107
X40.00471 Y57.59150
X40.13183 Y57.79993
X41.07031 Y60.42154
X41.10145 Y60.63315
X41.10491 Y60.86942
X41.07036 Y61.11100
X41.02889 Y61.18897
X40.92749 Y61.32189
X40.80087 Y61.43063
X40.69292 Y61.49461
X40.57545 Y61.53888
X40.32772 Y61.57216
X40.16219 Y61.55082
X40.04240 Y61.51341
X39.86186 Y61.40856
X39.74052 Y61.29403
X39.66557 Y61.19334
X39.59315 Y61.04254
X39.39419 Y60.48539
X39.17905 Y61.08118
X39.09902 Y61.22768
X39.02066 Y61.32568
X38.85752 Y61.45570
X38.70639 Y61.52730
X38.46067 Y61.57216
X38.29417 Y61.55864
X38.13405 Y61.51072
X37.98759 Y61.43071
X37.80674 Y61.25819
X37.73776 Y61.15336
X37.67413 Y60.99865
X37.64944 Y60.87564
X37.64497 Y60.72735
G04 P0 ( dwell for no time -- G64 should not smooth over this point )
G00 Z5.00000 ( retract )

G00 X36.15765 Y59.97351 ( rapid move to begin. )
F125.00000
G01 Z-0.15000
G04 P0 ( dwell for no time -- G64 should not smooth over this point )
F250.00000
G01 X36.15765 Y59.97351
X36.25356 Y59.92558
X36.30842 Y59.82273
X36.30842 Y59.05751
X36.25361 Y58.95476
X36.15775 Y58.90683
X35.96392 Y58.90683
X35.86118 Y58.96165
X35.81320 Y59.05761
X35.81320 Y59.82266
X35.86806 Y59.92553
X35.96402 Y59.97351
X36.15765 Y59.97351
G04 P0 ( dwell for no time -- G64 should not smooth over this point )
G00 Z5.00000 ( retract )

G00 X34.64521 Y57.91484 ( rapid move to begin. )
F125.00000
G01 Z-0.15000
G04 P0 ( dwell for no time -- G64 should not smooth over this point )
F250.00000
G01 X34.64521 Y57.91484
X34.51010 Y58.34585
X34.40276 Y58.54532
X34.21551 Y58.82756
X34.07708 Y58.87849
X33.91224 Y58.90462
X32.76558 Y58.90683
X32.76558 Y62.10683
X32.73728 Y62.31353
X32.69647 Y62.43215
X32.58648 Y62.60954
X32.46832 Y62.72771
X32.25194 Y62.85265
X32.09055 Y62.89588
X31.92377 Y62.90462
X31.71844 Y62.86766
X31.56558 Y62.79964
X31.40069 Y62.67170
X31.29558 Y62.54190
X31.21976 Y62.39306
X31.16779 Y62.14874
X31.16558 Y58.10684
X31.19050 Y57.91265
X31.28029 Y57.69597
X31.37356 Y57.57024
X31.55476 Y57.42149
X31.69642 Y57.35446
X31.84844 Y57.31641
X33.91214 Y57.30902
X34.07708 Y57.33513
X34.19573 Y57.37598
X34.37310 Y57.48593
X34.46489 Y57.57151
X34.54041 Y57.67176
X34.61620 Y57.82048
X34.64521 Y57.91484

G04 P0 ( dwell for no time -- G64 should not smooth over this point )
G00 Z10.000 ( retract )

M5 ( Spindle off. )
M9 ( Coolant off. )
M2 ( Program end. )

