( pcb2gcode 1.3.2 )
( Software-independent Gcode )

G94 ( Millimeters per minute feed rate. )
G21 ( Units == Millimeters. )

G90 ( Absolute coordinates. )
S10000 ( RPM spindle speed. )
F300.00000 ( Feedrate. )

F300.00000 ( Feedrate. )
M3 ( Spindle on clockwise. )
G04 P0 ( dwell for no time -- G64 should not smooth over this point )
G00 Z5.00000 ( retract )

G00 X27.44248 Y38.88165 ( rapid move to begin. )
G01 Z-1.90000 F150.00000 ( plunge. )
G04 P0 ( dwell for no time -- G64 should not smooth over this point )
F300.00000
G01 X27.44248 Y38.88165
X2.86120 Y39.03164
X2.55525 Y39.00136
X2.12647 Y38.89285
X1.75134 Y38.73329
X1.38246 Y38.51236
X1.08876 Y38.28315
X0.78066 Y37.97688
X0.55294 Y37.68798
X0.32772 Y37.31130
X0.16392 Y36.90868
X0.08904 Y36.60858
X0.05284 Y36.29205
X0.05353 Y36.04114
X0.75845 Y25.32054
Z-0.20000
X1.05371 Y20.83023
Z-1.90000 F150.00000
F300.00000
G01 X1.75863 Y10.10962
X1.80034 Y9.72405
X1.86859 Y9.36350
X2.02503 Y8.82786
X2.22307 Y8.35786
X2.43620 Y7.97300
X2.74222 Y7.54615
X8.46705 Y1.37441
X8.68491 Y1.16136
X9.00004 Y0.91053
X9.27020 Y0.73664
X9.62468 Y0.55239
X10.04985 Y0.38343
X10.47500 Y0.26047
X10.90256 Y0.17599
X11.32166 Y0.12722
X11.75264 Y0.10997
X37.17569 Y0.08282
Z-0.20000
X41.67569 Y0.07802
Z-1.90000 F150.00000
F300.00000
G01 X67.09873 Y0.05087
X67.29919 Y0.06171
X67.56549 Y0.10456
X67.80242 Y0.17192
X68.03196 Y0.26471
X68.23528 Y0.37060
X68.50800 Y0.55239
X68.68029 Y0.69425
X68.91461 Y0.92999
X69.18034 Y1.28516
X69.38387 Y1.68267
X69.49779 Y2.05097
X69.53947 Y2.32351
X69.54826 Y2.51320
X69.40613 Y26.20202
Z-0.20000
X69.37914 Y30.70194
Z-1.90000 F150.00000
F300.00000
G01 X69.23701 Y54.39076
X69.21885 Y54.59564
X69.16020 Y54.82320
X68.97026 Y55.32333
X68.66617 Y56.01187
X68.35543 Y56.58736
X68.03950 Y57.03757
X60.54528 Y64.88638
X60.27802 Y65.11498
X59.94452 Y65.35219
X59.59077 Y65.55683
X59.22032 Y65.72727
X58.82641 Y65.86448
X58.56500 Y65.93189
X58.14292 Y66.00192
X57.78511 Y66.02341
X46.81206 Y66.01585
Z-0.20000
X42.31206 Y66.01275
Z-1.90000 F150.00000
F300.00000
G01 X31.33901 Y66.00519
X31.00059 Y65.97581
X30.72477 Y65.90834
X30.35741 Y65.75597
X30.03777 Y65.55572
X29.80117 Y65.36100
X29.62939 Y65.18592
X29.42594 Y64.93311
X29.25195 Y64.65739
X29.10341 Y64.34591
X29.01316 Y64.07477
X28.95873 Y63.81424
X28.93521 Y63.56646
X28.91042 Y40.05518
X28.83661 Y39.73052
X28.72942 Y39.47774
X28.57773 Y39.25965
X28.48426 Y39.16882
X28.37202 Y39.08729
X28.23033 Y39.01363
X28.04380 Y38.94955
X27.79671 Y38.90233
X27.44248 Y38.88165

G04 P0 ( dwell for no time -- G64 should not smooth over this point )
G00 Z10.000 ( retract )

M5 ( Spindle off. )
M9 ( Coolant off. )
M2 ( Program end. )

